; generated by PrusaSlicer 2.2.0+win64 on 2020-04-11 at 21:56:26 UTC

; 

; external perimeters extrusion width = 0.45mm
; perimeters extrusion width = 0.45mm
; infill extrusion width = 0.45mm
; solid infill extrusion width = 0.60mm
; top infill extrusion width = 0.80mm
; first layer extrusion width = 0.52mm

M73 P0 R129
M73 Q0 S130
M201 X1000 Y1000 Z1000 E5000 ; sets maximum accelerations, mm/sec^2
M203 X200 Y200 Z12 E120 ; sets maximum feedrates, mm/sec
M204 P1250 R1250 T1250 ; sets acceleration (P, T) and retract acceleration (R), mm/sec^2
M205 X8.00 Y8.00 Z0.40 E4.50 ; sets the jerk limits, mm/sec
M205 S0 T0 ; sets the minimum extruding and travel feed rate, mm/sec
M107
M862.3 P "MK3S" ; printer model check
M862.1 P0.4 ; nozzle diameter check
M115 U3.8.1 ; tell printer latest fw version
G90 ; use absolute coordinates
M83 ; extruder relative mode
M104 S235 ; set extruder temp
M140 S70 ; set bed temp
M190 S70 ; wait for bed temp
M109 S235 ; wait for extruder temp
G28 W ; home all without mesh bed level
G80 ; mesh bed leveling
G1 Y-3.0 F1000.0 ; go outside print area
G92 E0.0
G1 X60.0 E9.0 F1000.0 ; intro line
M73 Q0 S130
M73 P0 R129
G1 X100.0 E12.5 F1000.0 ; intro line
G92 E0.0
M221 S95
G21 ; set units to millimeters
G90 ; use absolute coordinates
M83 ; use relative distances for extrusion
; Filament gcode
;BEFORE_LAYER_CHANGE
G92 E0.0
;0.4


G1 Z0.400 F7800.000
;AFTER_LAYER_CHANGE
;0.4
G1 E-4.00000 F2400.00000
G1 X81.396 Y131.101 F7800.000
G1 E4.00000 F2400.00000
G1 F1800.000
G1 X81.707 Y130.937 E0.02544
G1 X82.023 Y130.810 E0.02457
G1 X82.350 Y130.717 E0.02457
G1 X82.686 Y130.658 E0.02457
G1 X83.025 Y130.634 E0.02457
G1 X83.371 Y130.646 E0.02500
G1 X83.813 Y130.716 E0.03232
G1 X84.247 Y130.848 E0.03275
G1 X84.659 Y131.038 E0.03275
G1 X85.040 Y131.284 E0.03275
G1 X85.384 Y131.580 E0.03275
G1 X85.683 Y131.921 E0.03275
G1 X85.933 Y132.300 E0.03275
G1 X86.125 Y132.704 E0.03232
G1 X86.234 Y133.032 E0.02500
G1 X86.306 Y133.357 E0.02402
G1 X86.852 Y137.354 E0.29124
G1 X87.190 Y139.487 E0.15594
G1 X87.601 Y141.601 E0.15551
G1 X88.085 Y143.700 E0.15551
G1 X88.643 Y145.780 E0.15551
G1 X89.272 Y147.840 E0.15551
G1 X89.973 Y149.877 E0.15551
G1 X90.745 Y151.887 E0.15551
G1 X91.587 Y153.870 E0.15551
G1 X92.497 Y155.822 E0.15551
G1 X93.475 Y157.741 E0.15551
G1 X94.519 Y159.625 E0.15551
G1 X95.628 Y161.471 E0.15551
G1 X96.801 Y163.277 E0.15551
G1 X98.037 Y165.042 E0.15551
G1 X99.333 Y166.762 E0.15551
G1 X100.688 Y168.436 E0.15551
G1 X102.102 Y170.061 E0.15551
G1 X103.570 Y171.636 E0.15551
G1 X105.093 Y173.159 E0.15551
G1 X106.669 Y174.628 E0.15551
G1 X108.294 Y176.041 E0.15551
G1 X109.968 Y177.397 E0.15551
G1 X111.688 Y178.693 E0.15551
G1 X113.452 Y179.928 E0.15551
G1 X115.259 Y181.101 E0.15551
G1 X117.105 Y182.211 E0.15551
G1 X118.989 Y183.255 E0.15551
G1 X120.908 Y184.233 E0.15551
G1 X122.860 Y185.143 E0.15551
G1 X124.842 Y185.984 E0.15551
G1 X126.853 Y186.756 E0.15551
G1 X128.890 Y187.457 E0.15551
G1 X130.949 Y188.087 E0.15551
G1 X133.030 Y188.645 E0.15551
G1 X135.128 Y189.129 E0.15551
G1 X137.243 Y189.540 E0.15551
G1 X139.370 Y189.877 E0.15551
G1 X141.508 Y190.139 E0.15551
G1 X143.653 Y190.327 E0.15551
G1 X145.804 Y190.440 E0.15551
G1 X147.958 Y190.478 E0.15551
G1 X150.111 Y190.440 E0.15551
G1 X152.262 Y190.327 E0.15551
G1 X154.408 Y190.139 E0.15551
G1 X156.545 Y189.877 E0.15551
G1 X158.673 Y189.540 E0.15551
G1 X160.787 Y189.129 E0.15551
G1 X162.885 Y188.645 E0.15551
G1 X164.966 Y188.087 E0.15551
G1 X167.026 Y187.457 E0.15551
G1 X169.062 Y186.756 E0.15551
G1 X171.073 Y185.984 E0.15551
G1 X173.055 Y185.143 E0.15551
G1 X175.007 Y184.233 E0.15551
G1 X176.927 Y183.255 E0.15551
G1 X178.810 Y182.211 E0.15551
G1 X180.657 Y181.101 E0.15551
G1 X182.463 Y179.928 E0.15551
G1 X184.227 Y178.693 E0.15551
G1 X185.947 Y177.397 E0.15551
G1 X187.621 Y176.041 E0.15551
G1 X189.247 Y174.628 E0.15551
G1 X190.822 Y173.159 E0.15551
G1 X192.345 Y171.636 E0.15551
G1 X193.814 Y170.061 E0.15551
G1 X195.227 Y168.436 E0.15551
G1 X196.582 Y166.762 E0.15551
G1 X197.878 Y165.042 E0.15551
G1 X199.114 Y163.277 E0.15551
G1 X200.287 Y161.471 E0.15551
G1 X201.396 Y159.625 E0.15551
G1 X202.440 Y157.741 E0.15551
G1 X203.418 Y155.822 E0.15551
G1 X204.328 Y153.870 E0.15551
G1 X205.170 Y151.887 E0.15551
G1 X205.942 Y149.877 E0.15551
G1 X206.643 Y147.840 E0.15551
G1 X207.273 Y145.780 E0.15551
G1 X207.830 Y143.700 E0.15551
G1 X208.315 Y141.601 E0.15551
G1 X208.726 Y139.487 E0.15551
G1 X209.063 Y137.360 E0.15551
G1 X209.325 Y135.222 E0.15551
G1 X209.513 Y133.076 E0.15551
G1 X209.625 Y130.926 E0.15551
G1 X209.663 Y128.772 E0.15551
G1 X209.625 Y126.619 E0.15551
G1 X209.513 Y124.468 E0.15551
G1 X209.325 Y122.322 E0.15551
G1 X209.062 Y120.178 E0.15594
G1 X208.484 Y116.186 E0.29124
G1 X208.464 Y115.854 E0.02402
G1 X208.479 Y115.502 E0.02544
G1 X208.579 Y114.956 E0.04006
G1 X208.777 Y114.422 E0.04114
G1 X209.091 Y113.895 E0.04432
G1 X209.499 Y113.435 E0.04437
G1 X209.772 Y113.207 E0.02571
G1 X210.065 Y113.010 E0.02544
G1 X210.564 Y112.768 E0.04006
G1 X211.112 Y112.611 E0.04114
G1 X211.710 Y112.552 E0.04343
G1 X212.128 Y112.576 E0.03020
G1 X212.571 Y112.661 E0.03259
G1 X213.001 Y112.807 E0.03275
G1 X213.406 Y113.011 E0.03276
G1 X213.779 Y113.270 E0.03275
G1 X214.112 Y113.577 E0.03275
G1 X214.400 Y113.928 E0.03275
G1 X214.637 Y114.315 E0.03275
G1 X214.820 Y114.736 E0.03318
G1 X214.954 Y115.251 E0.03840
G1 X215.284 Y117.303 E0.15008
G1 X215.572 Y119.274 E0.14377
G1 X215.770 Y120.825 E0.11292
G1 X215.935 Y122.377 E0.11267
G1 X216.067 Y123.927 E0.11237
G1 X216.167 Y125.477 E0.11213
G1 X216.234 Y127.026 E0.11193
G1 X216.269 Y128.574 E0.11179
G1 X216.272 Y130.121 E0.11169
G1 X216.243 Y131.667 E0.11164
G1 X216.181 Y133.212 E0.11164
G1 X216.087 Y134.756 E0.11169
G1 X215.961 Y136.299 E0.11179
G1 X215.802 Y137.841 E0.11194
G1 X215.611 Y139.383 E0.11213
G1 X215.386 Y140.923 E0.11238
G1 X215.128 Y142.462 E0.11269
G1 X214.836 Y144.001 E0.11304
G1 X214.511 Y145.534 E0.11318
G1 X214.155 Y147.055 E0.11282
G1 X213.766 Y148.564 E0.11251
G1 X213.346 Y150.061 E0.11225
G1 X212.896 Y151.546 E0.11204
G1 X212.413 Y153.021 E0.11205
G1 X211.668 Y155.103 E0.15964
G1 X210.785 Y157.364 E0.17524
G1 X210.179 Y158.791 E0.11198
G1 X209.543 Y160.205 E0.11189
G1 X208.876 Y161.606 E0.11204
G1 X208.178 Y162.995 E0.11225
G1 X207.448 Y164.372 E0.11252
G1 X206.686 Y165.736 E0.11284
G1 X205.891 Y167.088 E0.11321
G1 X205.082 Y168.397 E0.11113
G1 X204.247 Y169.684 E0.11075
G1 X203.387 Y170.948 E0.11043
G1 X202.501 Y172.191 E0.11016
G1 X201.590 Y173.411 E0.10995
G1 X200.653 Y174.609 E0.10979
G1 X199.692 Y175.785 E0.10968
G1 X198.705 Y176.938 E0.10963
G1 X197.693 Y178.070 E0.10962
G1 X196.656 Y179.180 E0.10968
G1 X195.593 Y180.268 E0.10978
G1 X194.505 Y181.334 E0.10995
G1 X193.392 Y182.377 E0.11016
G1 X192.253 Y183.398 E0.11043
G1 X191.088 Y184.395 E0.11077
G1 X189.896 Y185.370 E0.11114
G1 X188.738 Y186.275 E0.10612
G1 X187.565 Y187.152 E0.10575
G1 X186.376 Y188.001 E0.10545
G1 X185.172 Y188.821 E0.10520
G1 X183.953 Y189.614 E0.10500
G1 X182.718 Y190.378 E0.10485
G1 X181.468 Y191.114 E0.10475
G1 X180.203 Y191.823 E0.10470
G1 X178.923 Y192.503 E0.10469
G1 X177.627 Y193.156 E0.10475
G1 X176.316 Y193.781 E0.10485
G1 X174.990 Y194.377 E0.10500
G1 X173.648 Y194.946 E0.10520
G1 X172.291 Y195.486 E0.10545
G1 X170.918 Y195.997 E0.10576
G1 X169.530 Y196.480 E0.10616
G1 X168.020 Y196.966 E0.11451
G1 X166.501 Y197.415 E0.11435
G1 X164.974 Y197.827 E0.11424
G1 X163.437 Y198.202 E0.11418
G1 X161.892 Y198.539 E0.11420
G1 X160.335 Y198.840 E0.11446
G1 X157.861 Y199.238 E0.18095
G1 X155.754 Y199.498 E0.15328
G1 X153.652 Y199.688 E0.15239
G1 X151.555 Y199.810 E0.15167
G1 X149.463 Y199.864 E0.15108
G1 X147.377 Y199.852 E0.15063
G1 X145.297 Y199.775 E0.15029
G1 X143.223 Y199.632 E0.15007
G1 X141.157 Y199.424 E0.14996
G1 X139.097 Y199.152 E0.14996
G1 X137.049 Y198.816 E0.14991
G1 X135.696 Y198.557 E0.09944
G1 X133.578 Y198.093 E0.15651
G1 X131.485 Y197.562 E0.15591
G1 X129.417 Y196.965 E0.15540
G1 X127.373 Y196.303 E0.15515
G1 X125.353 Y195.576 E0.15501
G1 X123.358 Y194.785 E0.15499
G1 X121.387 Y193.930 E0.15509
G1 X119.441 Y193.013 E0.15530
G1 X117.522 Y192.033 E0.15561
G1 X115.628 Y190.990 E0.15610
G1 X113.084 Y189.463 E0.21425
G1 X111.206 Y188.237 E0.16189
G1 X109.378 Y186.957 E0.16112
G1 X107.596 Y185.622 E0.16075
G1 X105.859 Y184.231 E0.16069
G1 X104.165 Y182.782 E0.16095
G1 X102.514 Y181.277 E0.16133
G1 X100.906 Y179.715 E0.16182
G1 X99.342 Y178.097 E0.16246
G1 X97.622 Y176.193 E0.18526
G1 X96.113 Y174.404 E0.16899
G1 X94.670 Y172.578 E0.16803
G1 X93.294 Y170.717 E0.16716
G1 X91.983 Y168.820 E0.16645
G1 X90.737 Y166.889 E0.16592
G1 X89.555 Y164.924 E0.16561
G1 X88.435 Y162.922 E0.16560
G1 X87.378 Y160.882 E0.16591
G1 X86.382 Y158.803 E0.16641
G1 X85.262 Y156.242 E0.20179
G1 X84.392 Y154.044 E0.17074
G1 X83.595 Y151.827 E0.17006
G1 X82.871 Y149.594 E0.16954
G1 X82.219 Y147.343 E0.16916
G1 X81.640 Y145.078 E0.16882
G1 X81.133 Y142.800 E0.16851
G1 X80.698 Y140.511 E0.16823
G1 X80.345 Y138.281 E0.16299
G1 X80.070 Y136.246 E0.14827
G1 X79.830 Y134.242 E0.14569
G1 X79.817 Y133.716 E0.03803
G1 X79.856 Y133.367 E0.02537
G1 X79.928 Y133.040 E0.02415
G1 X80.121 Y132.514 E0.04044
G1 X80.289 Y132.203 E0.02553
G1 X80.481 Y131.922 E0.02457
G1 X80.701 Y131.663 E0.02457
G1 X80.956 Y131.419 E0.02544
G1 X81.347 Y131.137 E0.03485
G1 X81.625 Y131.471 F7800.000
G1 F1800.000
G1 X81.890 Y131.331 E0.02163
G1 X82.164 Y131.221 E0.02130
G1 X82.448 Y131.141 E0.02130
G1 X82.738 Y131.090 E0.02130
G1 X83.033 Y131.069 E0.02130
G1 X83.330 Y131.079 E0.02146
G1 X83.716 Y131.140 E0.02823
G1 X84.092 Y131.254 E0.02839
G1 X84.449 Y131.420 E0.02839
G1 X84.780 Y131.633 E0.02839
G1 X85.078 Y131.889 E0.02840
G1 X85.337 Y132.185 E0.02840
G1 X85.554 Y132.513 E0.02839
G1 X85.721 Y132.866 E0.02823
G1 X85.815 Y133.148 E0.02146
G1 X85.878 Y133.434 E0.02109
G1 X86.422 Y137.417 E0.29028
G1 X86.762 Y139.562 E0.15682
G1 X87.176 Y141.692 E0.15660
G1 X87.664 Y143.805 E0.15660
G1 X88.225 Y145.900 E0.15660
G1 X88.859 Y147.974 E0.15660
G1 X89.565 Y150.025 E0.15660
G1 X90.343 Y152.050 E0.15660
G1 X91.190 Y154.047 E0.15660
G1 X92.107 Y156.012 E0.15660
G1 X93.092 Y157.945 E0.15660
G1 X94.143 Y159.842 E0.15660
G1 X95.260 Y161.701 E0.15660
G1 X96.441 Y163.520 E0.15660
G1 X97.686 Y165.297 E0.15660
G1 X98.991 Y167.029 E0.15660
G1 X100.356 Y168.715 E0.15660
G1 X101.779 Y170.352 E0.15660
G1 X103.258 Y171.938 E0.15660
G1 X104.792 Y173.472 E0.15660
G1 X106.378 Y174.951 E0.15660
G1 X108.015 Y176.374 E0.15660
G1 X109.701 Y177.739 E0.15660
G1 X111.433 Y179.044 E0.15660
G1 X113.210 Y180.288 E0.15660
G1 X115.029 Y181.469 E0.15660
G1 X116.888 Y182.587 E0.15660
G1 X118.785 Y183.638 E0.15660
G1 X120.717 Y184.623 E0.15660
G1 X122.683 Y185.539 E0.15660
G1 X124.680 Y186.387 E0.15660
G1 X126.705 Y187.164 E0.15660
G1 X128.755 Y187.870 E0.15660
G1 X130.830 Y188.505 E0.15660
G1 X132.925 Y189.066 E0.15660
G1 X135.038 Y189.554 E0.15660
G1 X137.167 Y189.968 E0.15660
G1 X139.309 Y190.307 E0.15660
G1 X141.462 Y190.571 E0.15660
G1 X143.623 Y190.760 E0.15660
G1 X145.789 Y190.874 E0.15660
G1 X147.958 Y190.912 E0.15660
G1 X150.126 Y190.874 E0.15660
G1 X152.292 Y190.760 E0.15660
G1 X154.453 Y190.571 E0.15660
G1 X156.606 Y190.307 E0.15660
G1 X158.748 Y189.968 E0.15660
G1 X160.877 Y189.554 E0.15660
G1 X162.991 Y189.066 E0.15660
G1 X165.086 Y188.505 E0.15660
G1 X167.160 Y187.870 E0.15660
G1 X169.211 Y187.164 E0.15660
G1 X171.236 Y186.387 E0.15660
G1 X173.232 Y185.539 E0.15660
G1 X175.198 Y184.623 E0.15660
G1 X177.130 Y183.638 E0.15660
G1 X179.027 Y182.587 E0.15660
G1 X180.887 Y181.469 E0.15660
G1 X182.706 Y180.288 E0.15660
G1 X184.482 Y179.044 E0.15660
G1 X186.215 Y177.739 E0.15660
G1 X187.900 Y176.374 E0.15660
G1 X189.537 Y174.951 E0.15660
G1 X191.123 Y173.472 E0.15660
G1 X192.657 Y171.938 E0.15660
G1 X194.136 Y170.352 E0.15660
G1 X195.559 Y168.715 E0.15660
G1 X196.924 Y167.029 E0.15660
G1 X198.230 Y165.297 E0.15660
G1 X199.474 Y163.520 E0.15660
G1 X200.655 Y161.701 E0.15660
G1 X201.772 Y159.842 E0.15660
G1 X202.824 Y157.945 E0.15660
G1 X203.808 Y156.012 E0.15660
G1 X204.725 Y154.047 E0.15660
G1 X205.573 Y152.050 E0.15660
G1 X206.350 Y150.025 E0.15660
G1 X207.056 Y147.974 E0.15660
G1 X207.690 Y145.900 E0.15660
G1 X208.251 Y143.805 E0.15660
G1 X208.739 Y141.692 E0.15660
G1 X209.153 Y139.562 E0.15660
G1 X209.493 Y137.420 E0.15660
G1 X209.757 Y135.267 E0.15660
G1 X209.946 Y133.107 E0.15660
G1 X210.059 Y130.941 E0.15660
G1 X210.097 Y128.772 E0.15660
G1 X210.059 Y126.603 E0.15660
G1 X209.946 Y124.437 E0.15660
G1 X209.757 Y122.277 E0.15660
G1 X209.492 Y120.121 E0.15682
G1 X208.917 Y116.142 E0.29028
G1 X208.899 Y115.850 E0.02110
G1 X208.912 Y115.551 E0.02163
G1 X208.999 Y115.072 E0.03515
G1 X209.171 Y114.610 E0.03556
G1 X209.443 Y114.152 E0.03849
G1 X209.802 Y113.747 E0.03905
G1 X210.033 Y113.555 E0.02173
G1 X210.282 Y113.388 E0.02163
G1 X210.720 Y113.175 E0.03516
G1 X211.193 Y113.039 E0.03556
G1 X211.719 Y112.988 E0.03815
G1 X212.075 Y113.008 E0.02570
G1 X212.460 Y113.082 E0.02834
G1 X212.832 Y113.208 E0.02839
G1 X213.184 Y113.386 E0.02840
G1 X213.507 Y113.609 E0.02840
G1 X213.796 Y113.876 E0.02840
G1 X214.046 Y114.180 E0.02840
G1 X214.251 Y114.515 E0.02840
G1 X214.408 Y114.878 E0.02856
G1 X214.528 Y115.340 E0.03447
G1 X214.855 Y117.369 E0.14837
G1 X215.142 Y119.332 E0.14326
G1 X215.339 Y120.875 E0.11230
G1 X215.503 Y122.418 E0.11201
G1 X215.634 Y123.960 E0.11172
G1 X215.733 Y125.501 E0.11148
G1 X215.800 Y127.040 E0.11128
G1 X215.835 Y128.579 E0.11114
G1 X215.838 Y130.117 E0.11104
G1 X215.809 Y131.654 E0.11099
G1 X215.747 Y133.190 E0.11099
G1 X215.654 Y134.725 E0.11104
G1 X215.529 Y136.259 E0.11113
G1 X215.371 Y137.792 E0.11128
G1 X215.180 Y139.325 E0.11147
G1 X214.957 Y140.856 E0.11172
G1 X214.701 Y142.386 E0.11202
G1 X214.411 Y143.915 E0.11237
G1 X214.088 Y145.440 E0.11251
G1 X213.733 Y146.952 E0.11214
G1 X213.347 Y148.452 E0.11183
G1 X212.930 Y149.940 E0.11157
G1 X212.482 Y151.416 E0.11137
G1 X212.002 Y152.881 E0.11128
G1 X211.261 Y154.951 E0.15876
G1 X210.383 Y157.200 E0.17434
G1 X209.781 Y158.617 E0.11119
G1 X209.149 Y160.022 E0.11122
G1 X208.486 Y161.415 E0.11137
G1 X207.792 Y162.796 E0.11157
G1 X207.067 Y164.164 E0.11183
G1 X206.309 Y165.520 E0.11215
G1 X205.519 Y166.863 E0.11252
G1 X204.715 Y168.165 E0.11044
G1 X203.886 Y169.444 E0.11006
G1 X203.031 Y170.700 E0.10974
G1 X202.151 Y171.935 E0.10947
G1 X201.245 Y173.147 E0.10925
G1 X200.314 Y174.338 E0.10910
G1 X199.359 Y175.506 E0.10899
G1 X198.378 Y176.653 E0.10894
G1 X197.372 Y177.777 E0.10893
G1 X196.342 Y178.880 E0.10899
G1 X195.286 Y179.961 E0.10909
G1 X194.205 Y181.020 E0.10925
G1 X193.099 Y182.057 E0.10947
G1 X191.967 Y183.071 E0.10973
G1 X190.809 Y184.063 E0.11006
G1 X189.625 Y185.031 E0.11044
G1 X188.475 Y185.930 E0.10543
G1 X187.309 Y186.801 E0.10507
G1 X186.128 Y187.644 E0.10477
G1 X184.932 Y188.460 E0.10451
G1 X183.720 Y189.247 E0.10431
G1 X182.494 Y190.006 E0.10416
G1 X181.252 Y190.738 E0.10406
G1 X179.995 Y191.442 E0.10401
G1 X178.723 Y192.118 E0.10401
G1 X177.436 Y192.766 E0.10406
G1 X176.133 Y193.387 E0.10416
G1 X174.816 Y193.979 E0.10431
G1 X173.483 Y194.544 E0.10451
G1 X172.135 Y195.081 E0.10476
G1 X170.771 Y195.589 E0.10507
G1 X169.392 Y196.068 E0.10545
G1 X167.892 Y196.551 E0.11377
G1 X166.383 Y196.997 E0.11360
G1 X164.866 Y197.406 E0.11348
G1 X163.339 Y197.779 E0.11343
G1 X161.804 Y198.114 E0.11344
G1 X160.260 Y198.412 E0.11359
G1 X157.800 Y198.808 E0.17988
G1 X155.708 Y199.066 E0.15220
G1 X153.620 Y199.255 E0.15137
G1 X151.536 Y199.376 E0.15066
G1 X149.458 Y199.430 E0.15009
G1 X147.386 Y199.418 E0.14963
G1 X145.320 Y199.341 E0.14930
G1 X143.260 Y199.199 E0.14908
G1 X141.207 Y198.993 E0.14897
G1 X139.161 Y198.723 E0.14898
G1 X137.125 Y198.388 E0.14901
G1 X135.783 Y198.132 E0.09861
G1 X133.678 Y197.671 E0.15557
G1 X131.599 Y197.143 E0.15488
G1 X129.545 Y196.550 E0.15438
G1 X127.514 Y195.892 E0.15413
G1 X125.507 Y195.170 E0.15401
G1 X123.524 Y194.384 E0.15400
G1 X121.566 Y193.535 E0.15410
G1 X119.633 Y192.623 E0.15431
G1 X117.725 Y191.650 E0.15463
G1 X115.844 Y190.614 E0.15503
G1 X113.314 Y189.095 E0.21307
