; generated by PrusaSlicer 2.2.0+win64 on 2020-05-13 at 16:09:28 UTC

; 

; external perimeters extrusion width = 0.45mm
; perimeters extrusion width = 0.45mm
; infill extrusion width = 0.45mm
; solid infill extrusion width = 0.60mm
; top infill extrusion width = 0.80mm
; first layer extrusion width = 0.52mm

M73 P0 R65
M73 Q0 S65
M201 X1000 Y1000 Z1000 E5000 ; sets maximum accelerations, mm/sec^2
M203 X200 Y200 Z12 E120 ; sets maximum feedrates, mm/sec
M204 P1250 R1250 T1250 ; sets acceleration (P, T) and retract acceleration (R), mm/sec^2
M205 X8.00 Y8.00 Z0.40 E4.50 ; sets the jerk limits, mm/sec
M205 S0 T0 ; sets the minimum extruding and travel feed rate, mm/sec
M107
M862.3 P "MK3S" ; printer model check
M862.1 P0.4 ; nozzle diameter check
M115 U3.8.1 ; tell printer latest fw version
G90 ; use absolute coordinates
M83 ; extruder relative mode
M104 S215 ; set extruder temp
M140 S70 ; set bed temp
M190 S70 ; wait for bed temp
M109 S215 ; wait for extruder temp
G28 W ; home all without mesh bed level
G80 ; mesh bed leveling
G1 Y-3.0 F1000.0 ; go outside print area
G92 E0.0
G1 X60.0 E9.0 F1000.0 ; intro line
M73 Q0 S65
M73 P0 R65
G1 X100.0 E12.5 F1000.0 ; intro line
G92 E0.0
M221 S95
G21 ; set units to millimeters
G90 ; use absolute coordinates
M83 ; use relative distances for extrusion
M900 K30 ; Filament gcode
;BEFORE_LAYER_CHANGE
G92 E0.0
;0.4


G1 Z0.400 F7800.000
;AFTER_LAYER_CHANGE
;0.4
G1 E-4.00000 F2400.00000
G1 X58.261 Y112.868 F7800.000
G1 E4.00000 F2400.00000
G1 F1800.000
G1 X58.567 Y112.693 E0.02544
G1 X58.878 Y112.556 E0.02457
G1 X59.202 Y112.451 E0.02457
G1 X59.547 Y112.379 E0.02544
G1 X60.089 Y112.342 E0.03918
G1 X60.440 Y112.366 E0.02544
G1 X60.781 Y112.426 E0.02500
G1 X61.209 Y112.557 E0.03232
G1 X61.621 Y112.747 E0.03275
G1 X62.002 Y112.993 E0.03275
G1 X62.345 Y113.290 E0.03275
G1 X62.645 Y113.631 E0.03275
G1 X62.894 Y114.010 E0.03275
G1 X63.088 Y114.420 E0.03275
G1 X63.222 Y114.847 E0.03231
G1 X63.284 Y115.188 E0.02500
G1 X63.310 Y115.519 E0.02402
G1 X63.294 Y119.553 E0.29124
G1 X63.332 Y121.712 E0.15594
G1 X63.445 Y123.863 E0.15551
G1 X63.633 Y126.009 E0.15551
G1 X63.895 Y128.147 E0.15551
G1 X64.232 Y130.274 E0.15551
G1 X64.643 Y132.388 E0.15551
G1 X65.127 Y134.487 E0.15551
G1 X65.685 Y136.567 E0.15551
G1 X66.315 Y138.627 E0.15551
G1 X67.016 Y140.663 E0.15551
G1 X67.788 Y142.674 E0.15551
G1 X68.629 Y144.657 E0.15551
G1 X69.539 Y146.609 E0.15551
G1 X70.517 Y148.528 E0.15551
G1 X71.561 Y150.412 E0.15551
G1 X72.671 Y152.258 E0.15551
G1 X73.844 Y154.064 E0.15551
G1 X75.079 Y155.828 E0.15551
G1 X76.375 Y157.549 E0.15551
G1 X77.731 Y159.222 E0.15551
G1 X79.144 Y160.848 E0.15551
G1 X80.613 Y162.423 E0.15551
G1 X82.136 Y163.946 E0.15551
G1 X83.711 Y165.415 E0.15551
G1 X85.336 Y166.828 E0.15551
G1 X87.010 Y168.183 E0.15551
G1 X88.730 Y169.480 E0.15551
G1 X90.495 Y170.715 E0.15551
G1 X92.301 Y171.888 E0.15551
G1 X94.147 Y172.997 E0.15551
G1 X96.031 Y174.042 E0.15551
G1 X97.950 Y175.019 E0.15551
G1 X99.902 Y175.930 E0.15551
G1 X101.885 Y176.771 E0.15551
G1 X103.895 Y177.543 E0.15551
G1 X105.932 Y178.244 E0.15551
G1 X107.992 Y178.874 E0.15551
G1 X110.072 Y179.431 E0.15551
G1 X112.171 Y179.916 E0.15551
G1 X114.285 Y180.327 E0.15551
G1 X116.412 Y180.664 E0.15551
G1 X118.550 Y180.926 E0.15551
G1 X120.696 Y181.114 E0.15551
G1 X122.846 Y181.227 E0.15551
G1 X125.000 Y181.264 E0.15551
G1 X127.153 Y181.227 E0.15551
G1 X129.304 Y181.114 E0.15551
G1 X131.450 Y180.926 E0.15551
G1 X133.588 Y180.664 E0.15551
G1 X134.499 Y180.519 E0.06662
G1 X135.715 Y180.327 E0.08888
G1 X137.829 Y179.916 E0.15551
G1 X139.928 Y179.431 E0.15551
G1 X142.008 Y178.874 E0.15551
G1 X144.068 Y178.244 E0.15551
G1 X146.104 Y177.543 E0.15551
G1 X148.115 Y176.771 E0.15551
G1 X148.965 Y176.411 E0.06662
G1 X150.098 Y175.930 E0.08888
G1 X152.050 Y175.019 E0.15551
G1 X153.969 Y174.042 E0.15551
G1 X155.853 Y172.997 E0.15551
G1 X157.699 Y171.888 E0.15551
G1 X159.505 Y170.715 E0.15551
G1 X161.270 Y169.480 E0.15551
G1 X162.990 Y168.183 E0.15551
G1 X164.663 Y166.828 E0.15551
G1 X166.289 Y165.415 E0.15551
G1 X166.964 Y164.786 E0.06662
G1 X167.864 Y163.946 E0.08888
G1 X169.387 Y162.423 E0.15551
G1 X170.856 Y160.848 E0.15551
G1 X172.269 Y159.222 E0.15551
G1 X173.625 Y157.549 E0.15551
G1 X174.921 Y155.828 E0.15551
G1 X176.156 Y154.064 E0.15551
G1 X177.329 Y152.258 E0.15551
G1 X178.438 Y150.412 E0.15551
G1 X179.483 Y148.528 E0.15551
G1 X180.460 Y146.609 E0.15551
G1 X181.371 Y144.657 E0.15551
G1 X182.212 Y142.674 E0.15551
G1 X182.984 Y140.663 E0.15551
G1 X183.685 Y138.627 E0.15551
G1 X184.315 Y136.567 E0.15551
G1 X184.873 Y134.487 E0.15551
G1 X185.357 Y132.388 E0.15551
G1 X185.768 Y130.274 E0.15551
G1 X186.105 Y128.147 E0.15551
G1 X186.367 Y126.009 E0.15551
G1 X186.555 Y123.863 E0.15551
G1 X186.668 Y121.712 E0.15551
G1 X186.706 Y119.553 E0.15594
G1 X186.689 Y115.519 E0.29124
G1 X186.715 Y115.188 E0.02402
G1 X186.779 Y114.841 E0.02544
G1 X186.954 Y114.315 E0.04006
G1 X187.221 Y113.821 E0.04050
G1 X187.503 Y113.450 E0.03363
G1 X187.908 Y113.062 E0.04050
G1 X188.379 Y112.747 E0.04094
G1 X188.897 Y112.517 E0.04094
G1 X189.444 Y112.381 E0.04071
G1 X189.955 Y112.341 E0.03702
G1 X190.561 Y112.397 E0.04393
G1 X190.907 Y112.482 E0.02571
G1 X191.238 Y112.602 E0.02544
G1 X191.718 Y112.855 E0.03919
G1 X192.004 Y113.061 E0.02544
G1 X192.267 Y113.295 E0.02544
G1 X192.619 Y113.709 E0.03918
G1 X192.807 Y114.007 E0.02544
G1 X192.964 Y114.322 E0.02544
G1 X193.136 Y114.837 E0.03918
G1 X193.200 Y115.183 E0.02544
G1 X193.226 Y115.506 E0.02335
G1 X193.268 Y117.572 E0.14920
G1 X193.278 Y119.563 E0.14377
G1 X193.258 Y121.127 E0.11292
G1 X193.206 Y122.686 E0.11267
G1 X193.121 Y124.240 E0.11237
G1 X193.004 Y125.789 E0.11213
G1 X192.855 Y127.332 E0.11193
G1 X192.674 Y128.870 E0.11179
G1 X192.462 Y130.402 E0.11169
G1 X192.218 Y131.929 E0.11164
G1 X191.942 Y133.450 E0.11164
G1 X191.634 Y134.966 E0.11169
G1 X191.294 Y136.477 E0.11179
G1 X190.922 Y137.982 E0.11194
G1 X190.518 Y139.482 E0.11213
G1 X190.081 Y140.976 E0.11238
G1 X189.611 Y142.464 E0.11269
G1 X189.109 Y143.947 E0.11305
G1 X188.573 Y145.420 E0.11318
G1 X188.008 Y146.877 E0.11282
G1 X187.414 Y148.317 E0.11251
G1 X186.790 Y149.741 E0.11225
G1 X186.137 Y151.149 E0.11204
G1 X185.454 Y152.540 E0.11189
G1 X184.744 Y153.916 E0.11178
G1 X184.004 Y155.275 E0.11173
G1 X183.235 Y156.618 E0.11173
G1 X182.438 Y157.946 E0.11178
G1 X181.612 Y159.257 E0.11189
G1 X180.756 Y160.551 E0.11204
G1 X179.871 Y161.830 E0.11225
G1 X178.957 Y163.091 E0.11252
G1 X178.012 Y164.336 E0.11284
G1 X177.037 Y165.564 E0.11321
G1 X176.054 Y166.748 E0.11113
G1 X175.048 Y167.906 E0.11075
G1 X174.020 Y169.039 E0.11043
G1 X172.970 Y170.146 E0.11016
G1 X171.898 Y171.227 E0.10995
G1 X170.804 Y172.283 E0.10979
G1 X169.688 Y173.314 E0.10968
G1 X168.550 Y174.319 E0.10963
G1 X167.390 Y175.299 E0.10962
G1 X166.209 Y176.254 E0.10968
G1 X165.005 Y177.183 E0.10978
G1 X163.780 Y178.087 E0.10995
G1 X162.532 Y178.965 E0.11016
G1 X161.262 Y179.817 E0.11044
G1 X159.969 Y180.643 E0.11077
G1 X158.653 Y181.443 E0.11114
G1 X157.381 Y182.178 E0.10612
G1 X156.097 Y182.883 E0.10575
G1 X154.802 Y183.558 E0.10545
G1 X153.495 Y184.203 E0.10520
G1 X152.177 Y184.818 E0.10500
G1 X150.848 Y185.403 E0.10485
G1 X149.508 Y185.958 E0.10475
G1 X148.157 Y186.484 E0.10470
G1 X146.794 Y186.979 E0.10470
G1 X145.420 Y187.445 E0.10475
G1 X144.035 Y187.882 E0.10484
G1 X142.639 Y188.288 E0.10500
G1 X141.231 Y188.664 E0.10520
G1 X139.812 Y189.010 E0.10546
G1 X138.381 Y189.326 E0.10576
G1 X136.939 Y189.610 E0.10616
G1 X135.376 Y189.881 E0.11451
G1 X133.810 Y190.115 E0.11435
G1 X132.240 Y190.310 E0.11424
G1 X130.666 Y190.467 E0.11419
G1 X129.089 Y190.586 E0.11420
G1 X127.506 Y190.668 E0.11446
G1 X125.000 Y190.717 E0.18095
G1 X122.877 Y190.681 E0.15328
G1 X120.769 Y190.577 E0.15239
G1 X118.676 Y190.406 E0.15167
G1 X116.596 Y190.169 E0.15108
G1 X114.532 Y189.867 E0.15063
G1 X112.483 Y189.500 E0.15029
G1 X110.450 Y189.070 E0.15007
G1 X108.432 Y188.577 E0.14996
G1 X106.431 Y188.021 E0.14996
G1 X104.449 Y187.402 E0.14991
G1 X103.145 Y186.958 E0.09944
G1 X101.113 Y186.204 E0.15651
G1 X99.114 Y185.387 E0.15591
G1 X97.149 Y184.508 E0.15540
G1 X95.217 Y183.568 E0.15514
G1 X93.318 Y182.566 E0.15501
G1 X91.452 Y181.505 E0.15499
G1 X89.619 Y180.385 E0.15509
G1 X87.821 Y179.206 E0.15530
G1 X86.056 Y177.968 E0.15561
G1 X84.326 Y176.672 E0.15610
G1 X82.019 Y174.805 E0.21425
G1 X80.330 Y173.330 E0.16189
G1 X78.698 Y171.808 E0.16112
G1 X77.120 Y170.238 E0.16075
G1 X75.593 Y168.619 E0.16069
G1 X74.117 Y166.948 E0.16095
G1 X72.691 Y165.228 E0.16133
G1 X71.317 Y163.458 E0.16182
G1 X69.993 Y161.638 E0.16246
G1 X68.555 Y159.513 E0.18526
G1 X67.309 Y157.532 E0.16899
G1 X66.135 Y155.523 E0.16803
G1 X65.031 Y153.487 E0.16716
G1 X63.997 Y151.427 E0.16645
G1 X63.031 Y149.342 E0.16592
G1 X62.134 Y147.230 E0.16561
G1 X61.304 Y145.092 E0.16560
G1 X60.541 Y142.925 E0.16591
G1 X59.844 Y140.728 E0.16641
G1 X59.092 Y138.036 E0.20179
G1 X58.536 Y135.738 E0.17074
G1 X58.055 Y133.432 E0.17006
G1 X57.649 Y131.119 E0.16954
G1 X57.317 Y128.800 E0.16916
G1 X57.058 Y126.476 E0.16882
G1 X56.873 Y124.150 E0.16851
G1 X56.761 Y121.822 E0.16823
G1 X56.722 Y119.565 E0.16299
G1 X56.733 Y117.512 E0.14827
G1 X56.774 Y115.494 E0.14568
G1 X56.834 Y114.971 E0.03803
G1 X56.922 Y114.630 E0.02543
G1 X57.041 Y114.311 E0.02457
G1 X57.193 Y114.007 E0.02457
G1 X57.375 Y113.719 E0.02457
G1 X57.586 Y113.452 E0.02457
G1 X57.832 Y113.200 E0.02544
G1 X58.214 Y112.905 E0.03485
G1 X58.503 Y113.230 F7800.000
G1 F1800.000
G1 X58.763 Y113.081 E0.02163
G1 X59.033 Y112.962 E0.02130
G1 X59.314 Y112.872 E0.02130
G1 X59.607 Y112.810 E0.02163
G1 X60.088 Y112.777 E0.03483
G1 X60.387 Y112.798 E0.02163
G1 X60.680 Y112.849 E0.02147
G1 X61.054 Y112.963 E0.02823
G1 X61.411 Y113.129 E0.02839
G1 X61.741 Y113.342 E0.02840
G1 X62.039 Y113.599 E0.02839
G1 X62.298 Y113.894 E0.02840
G1 X62.514 Y114.223 E0.02839
G1 X62.683 Y114.579 E0.02839
G1 X62.799 Y114.952 E0.02823
G1 X62.853 Y115.244 E0.02146
G1 X62.876 Y115.535 E0.02109
G1 X62.860 Y119.556 E0.29028
G1 X62.898 Y121.727 E0.15683
G1 X63.012 Y123.893 E0.15660
G1 X63.201 Y126.054 E0.15660
G1 X63.465 Y128.207 E0.15660
G1 X63.804 Y130.349 E0.15660
G1 X64.218 Y132.478 E0.15660
G1 X64.706 Y134.592 E0.15660
G1 X65.267 Y136.687 E0.15660
G1 X65.902 Y138.761 E0.15660
G1 X66.608 Y140.812 E0.15660
G1 X67.385 Y142.837 E0.15660
G1 X68.233 Y144.833 E0.15660
G1 X69.149 Y146.799 E0.15660
G1 X70.134 Y148.732 E0.15660
G1 X71.185 Y150.629 E0.15660
G1 X72.303 Y152.488 E0.15660
G1 X73.484 Y154.307 E0.15660
G1 X74.728 Y156.084 E0.15660
G1 X76.033 Y157.816 E0.15660
G1 X77.398 Y159.501 E0.15660
G1 X78.821 Y161.138 E0.15660
G1 X80.300 Y162.725 E0.15660
G1 X81.834 Y164.258 E0.15660
G1 X83.420 Y165.738 E0.15660
G1 X85.057 Y167.161 E0.15660
G1 X86.743 Y168.526 E0.15660
G1 X88.475 Y169.831 E0.15660
G1 X90.252 Y171.075 E0.15660
G1 X92.071 Y172.256 E0.15660
G1 X93.930 Y173.373 E0.15660
G1 X95.827 Y174.425 E0.15660
G1 X97.760 Y175.410 E0.15660
G1 X99.726 Y176.326 E0.15660
G1 X101.722 Y177.174 E0.15660
G1 X103.747 Y177.951 E0.15660
G1 X105.798 Y178.657 E0.15660
G1 X107.872 Y179.291 E0.15660
G1 X109.967 Y179.853 E0.15660
G1 X112.080 Y180.341 E0.15660
G1 X114.210 Y180.754 E0.15660
G1 X116.352 Y181.094 E0.15660
G1 X118.505 Y181.358 E0.15660
G1 X120.665 Y181.547 E0.15660
G1 X122.831 Y181.661 E0.15660
G1 X125.000 Y181.699 E0.15660
G1 X127.169 Y181.661 E0.15660
G1 X129.335 Y181.547 E0.15660
G1 X131.495 Y181.358 E0.15660
G1 X133.648 Y181.094 E0.15660
G1 X134.567 Y180.948 E0.06717
G1 X135.790 Y180.754 E0.08943
G1 X137.920 Y180.341 E0.15660
G1 X140.033 Y179.853 E0.15660
G1 X142.128 Y179.291 E0.15660
G1 X144.202 Y178.657 E0.15660
G1 X146.253 Y177.951 E0.15660
G1 X148.278 Y177.174 E0.15660
G1 X149.134 Y176.810 E0.06717
G1 X150.274 Y176.326 E0.08943
G1 X152.240 Y175.410 E0.15660
G1 X154.173 Y174.425 E0.15660
G1 X156.070 Y173.373 E0.15660
G1 X157.929 Y172.256 E0.15660
G1 X159.748 Y171.075 E0.15660
G1 X161.525 Y169.831 E0.15660
G1 X163.257 Y168.526 E0.15660
G1 X164.943 Y167.161 E0.15660
G1 X166.580 Y165.738 E0.15660
G1 X167.260 Y165.103 E0.06717
G1 X168.166 Y164.258 E0.08943
G1 X169.700 Y162.725 E0.15660
G1 X171.179 Y161.138 E0.15660
G1 X172.602 Y159.501 E0.15660
G1 X173.967 Y157.816 E0.15660
G1 X175.272 Y156.084 E0.15660
G1 X176.516 Y154.307 E0.15660
G1 X177.697 Y152.488 E0.15660
G1 X178.815 Y150.629 E0.15660
G1 X179.866 Y148.732 E0.15660
G1 X180.851 Y146.799 E0.15660
G1 X181.767 Y144.833 E0.15660
G1 X182.615 Y142.837 E0.15660
G1 X183.392 Y140.812 E0.15660
G1 X184.098 Y138.761 E0.15660
G1 X184.732 Y136.687 E0.15660
G1 X185.294 Y134.592 E0.15660
G1 X185.782 Y132.478 E0.15660
G1 X186.196 Y130.349 E0.15660
G1 X186.535 Y128.207 E0.15660
G1 X186.799 Y126.054 E0.15660
G1 X186.988 Y123.893 E0.15660
G1 X187.102 Y121.727 E0.15660
G1 X187.140 Y119.556 E0.15682
G1 X187.124 Y115.535 E0.29028
G1 X187.146 Y115.244 E0.02110
G1 X187.201 Y114.949 E0.02163
G1 X187.354 Y114.487 E0.03516
G1 X187.587 Y114.057 E0.03532
G1 X187.828 Y113.740 E0.02872
G1 X188.181 Y113.402 E0.03532
G1 X188.589 Y113.128 E0.03548
G1 X189.038 Y112.929 E0.03548
G1 X189.514 Y112.811 E0.03540
G1 X189.952 Y112.776 E0.03173
G1 X190.489 Y112.826 E0.03888
G1 X190.781 Y112.898 E0.02173
G1 X191.062 Y113.000 E0.02163
G1 X191.489 Y113.225 E0.03483
G1 X191.732 Y113.400 E0.02163
G1 X191.956 Y113.599 E0.02163
G1 X192.268 Y113.967 E0.03483
G1 X192.429 Y114.220 E0.02163
G1 X192.562 Y114.488 E0.02163
G1 X192.715 Y114.946 E0.03483
G1 X192.770 Y115.240 E0.02163
G1 X192.792 Y115.527 E0.02079
G1 X192.833 Y117.577 E0.14804
G1 X192.844 Y119.561 E0.14326
G1 X192.824 Y121.117 E0.11231
G1 X192.772 Y122.667 E0.11201
G1 X192.688 Y124.212 E0.11172
G1 X192.571 Y125.752 E0.11148
G1 X192.423 Y127.286 E0.11128
G1 X192.243 Y128.815 E0.11114
G1 X192.032 Y130.338 E0.11104
G1 X191.790 Y131.856 E0.11099
G1 X191.515 Y133.369 E0.11099
G1 X191.209 Y134.876 E0.11104
G1 X190.871 Y136.377 E0.11113
G1 X190.502 Y137.874 E0.11128
G1 X190.100 Y139.364 E0.11147
G1 X189.666 Y140.849 E0.11172
G1 X189.199 Y142.329 E0.11202
G1 X188.699 Y143.803 E0.11237
G1 X188.167 Y145.268 E0.11251
G1 X187.605 Y146.716 E0.11214
G1 X187.014 Y148.147 E0.11183
G1 X186.394 Y149.563 E0.11158
G1 X185.745 Y150.962 E0.11137
G1 X185.067 Y152.345 E0.11122
G1 X184.360 Y153.712 E0.11112
G1 X183.625 Y155.064 E0.11107
G1 X182.861 Y156.399 E0.11107
G1 X182.068 Y157.718 E0.11111
G1 X181.247 Y159.021 E0.11121
G1 X180.397 Y160.308 E0.11137
G1 X179.517 Y161.579 E0.11157
G1 X178.608 Y162.833 E0.11183
G1 X177.669 Y164.070 E0.11215
G1 X176.700 Y165.291 E0.11252
G1 X175.723 Y166.467 E0.11044
G1 X174.723 Y167.618 E0.11006
G1 X173.702 Y168.744 E0.10974
G1 X172.658 Y169.844 E0.10947
G1 X171.593 Y170.918 E0.10925
G1 X170.506 Y171.968 E0.10910
G1 X169.397 Y172.992 E0.10899
G1 X168.266 Y173.991 E0.10894
G1 X167.114 Y174.964 E0.10893
G1 X165.940 Y175.913 E0.10899
G1 X164.744 Y176.837 E0.10909
G1 X163.526 Y177.735 E0.10925
G1 X162.286 Y178.607 E0.10947
G1 X161.024 Y179.454 E0.10974
G1 X159.739 Y180.275 E0.11006
G1 X158.432 Y181.069 E0.11044
G1 X157.168 Y181.800 E0.10543
G1 X155.892 Y182.500 E0.10507
G1 X154.605 Y183.171 E0.10477
G1 X153.307 Y183.811 E0.10451
G1 X151.998 Y184.422 E0.10431
G1 X150.678 Y185.004 E0.10416
G1 X149.346 Y185.555 E0.10406
G1 X148.004 Y186.077 E0.10401
G1 X146.650 Y186.570 E0.10401
G1 X145.285 Y187.033 E0.10406
G1 X143.909 Y187.466 E0.10416
G1 X142.522 Y187.870 E0.10431
G1 X141.123 Y188.243 E0.10451
G1 X139.714 Y188.587 E0.10476
G1 X138.293 Y188.901 E0.10507
G1 X136.860 Y189.183 E0.10545
G1 X135.307 Y189.453 E0.11377
G1 X133.751 Y189.684 E0.11360
G1 X132.191 Y189.878 E0.11348
G1 X130.628 Y190.035 E0.11343
G1 X129.061 Y190.153 E0.11344
G1 X127.490 Y190.234 E0.11359
G1 X124.999 Y190.283 E0.17988
G1 X122.892 Y190.247 E0.15220
G1 X120.798 Y190.144 E0.15137
G1 X118.718 Y189.974 E0.15066
G1 X116.653 Y189.738 E0.15009
G1 X114.602 Y189.438 E0.14963
G1 X112.566 Y189.074 E0.14930
G1 X110.546 Y188.647 E0.14908
G1 X108.542 Y188.157 E0.14897
G1 X106.554 Y187.604 E0.14898
G1 X104.584 Y186.990 E0.14901
G1 X103.291 Y186.549 E0.09861
G1 X101.271 Y185.800 E0.15557
G1 X99.285 Y184.988 E0.15488
