; generated by PrusaSlicer 2.2.0+win64 on 2020-05-07 at 12:18:59 UTC

; 

; external perimeters extrusion width = 0.45mm
; perimeters extrusion width = 0.45mm
; infill extrusion width = 0.45mm
; solid infill extrusion width = 0.60mm
; top infill extrusion width = 0.80mm
; first layer extrusion width = 0.52mm

M73 P0 R128
M73 Q0 S129
M201 X1000 Y1000 Z1000 E5000 ; sets maximum accelerations, mm/sec^2
M203 X200 Y200 Z12 E120 ; sets maximum feedrates, mm/sec
M204 P1250 R1250 T1250 ; sets acceleration (P, T) and retract acceleration (R), mm/sec^2
M205 X8.00 Y8.00 Z0.40 E4.50 ; sets the jerk limits, mm/sec
M205 S0 T0 ; sets the minimum extruding and travel feed rate, mm/sec
M107
M862.3 P "MK3S" ; printer model check
M862.1 P0.4 ; nozzle diameter check
M115 U3.8.1 ; tell printer latest fw version
G90 ; use absolute coordinates
M83 ; extruder relative mode
M104 S215 ; set extruder temp
M140 S65 ; set bed temp
M190 S65 ; wait for bed temp
M109 S215 ; wait for extruder temp
G28 W ; home all without mesh bed level
G80 ; mesh bed leveling
G1 Y-3.0 F1000.0 ; go outside print area
G92 E0.0
G1 X60.0 E9.0 F1000.0 ; intro line
M73 Q0 S129
M73 P0 R128
G1 X100.0 E12.5 F1000.0 ; intro line
G92 E0.0
M221 S95
G21 ; set units to millimeters
G90 ; use absolute coordinates
M83 ; use relative distances for extrusion
M900 K30 ; Filament gcode
;BEFORE_LAYER_CHANGE
G92 E0.0
;0.4


G1 Z0.400 F7800.000
;AFTER_LAYER_CHANGE
;0.4
G1 E-1.40000 F2400.00000
G1 Z0.600 F7800.000
G1 X81.399 Y131.106
G1 Z0.400
G1 E1.40000 F2400.00000
G1 F1800.000
G1 X81.711 Y130.942 E0.02544
G1 X82.026 Y130.815 E0.02457
G1 X82.354 Y130.721 E0.02457
G1 X82.689 Y130.663 E0.02457
G1 X83.028 Y130.639 E0.02457
G1 X83.374 Y130.651 E0.02500
G1 X83.816 Y130.720 E0.03232
G1 X84.250 Y130.852 E0.03275
G1 X84.662 Y131.043 E0.03275
G1 X85.043 Y131.288 E0.03275
G1 X85.387 Y131.585 E0.03275
G1 X85.687 Y131.925 E0.03275
G1 X85.936 Y132.304 E0.03275
G1 X86.128 Y132.709 E0.03232
G1 X86.238 Y133.037 E0.02500
G1 X86.309 Y133.362 E0.02402
G1 X86.855 Y137.358 E0.29124
G1 X87.193 Y139.492 E0.15594
G1 X87.604 Y141.606 E0.15551
G1 X88.088 Y143.705 E0.15551
G1 X88.646 Y145.785 E0.15551
G1 X89.275 Y147.845 E0.15551
G1 X89.977 Y149.881 E0.15551
G1 X90.749 Y151.892 E0.15551
G1 X91.590 Y153.874 E0.15551
G1 X92.500 Y155.827 E0.15551
G1 X93.478 Y157.746 E0.15551
G1 X94.522 Y159.629 E0.15551
G1 X95.632 Y161.476 E0.15551
G1 X96.805 Y163.282 E0.15551
G1 X98.040 Y165.046 E0.15551
G1 X99.336 Y166.766 E0.15551
G1 X100.692 Y168.440 E0.15551
G1 X102.105 Y170.066 E0.15551
G1 X103.574 Y171.641 E0.15551
G1 X105.097 Y173.164 E0.15551
G1 X106.672 Y174.633 E0.15551
G1 X108.297 Y176.046 E0.15551
G1 X109.971 Y177.401 E0.15551
G1 X111.691 Y178.697 E0.15551
G1 X113.456 Y179.933 E0.15551
G1 X115.262 Y181.106 E0.15551
G1 X117.108 Y182.215 E0.15551
G1 X118.992 Y183.259 E0.15551
G1 X120.911 Y184.237 E0.15551
G1 X122.863 Y185.147 E0.15551
G1 X124.846 Y185.989 E0.15551
G1 X126.856 Y186.761 E0.15551
G1 X128.893 Y187.462 E0.15551
G1 X130.953 Y188.092 E0.15551
G1 X133.033 Y188.649 E0.15551
G1 X135.132 Y189.134 E0.15551
G1 X137.246 Y189.545 E0.15551
G1 X139.373 Y189.882 E0.15551
G1 X141.511 Y190.144 E0.15551
G1 X143.656 Y190.332 E0.15551
G1 X145.807 Y190.444 E0.15551
G1 X147.961 Y190.482 E0.15551
G1 X150.114 Y190.444 E0.15551
G1 X152.265 Y190.332 E0.15551
G1 X154.411 Y190.144 E0.15551
G1 X156.549 Y189.882 E0.15551
G1 X158.676 Y189.545 E0.15551
G1 X160.790 Y189.134 E0.15551
G1 X162.889 Y188.649 E0.15551
G1 X164.969 Y188.092 E0.15551
G1 X167.029 Y187.462 E0.15551
G1 X169.065 Y186.761 E0.15551
G1 X171.076 Y185.989 E0.15551
G1 X173.059 Y185.147 E0.15551
G1 X175.011 Y184.237 E0.15551
G1 X176.930 Y183.259 E0.15551
G1 X178.814 Y182.215 E0.15551
G1 X180.660 Y181.106 E0.15551
G1 X182.466 Y179.933 E0.15551
G1 X184.230 Y178.697 E0.15551
G1 X185.951 Y177.401 E0.15551
G1 X187.624 Y176.046 E0.15551
G1 X189.250 Y174.633 E0.15551
G1 X190.825 Y173.164 E0.15551
G1 X192.348 Y171.641 E0.15551
G1 X193.817 Y170.066 E0.15551
G1 X195.230 Y168.440 E0.15551
G1 X196.585 Y166.766 E0.15551
G1 X197.882 Y165.046 E0.15551
G1 X199.117 Y163.282 E0.15551
G1 X200.290 Y161.476 E0.15551
G1 X201.399 Y159.629 E0.15551
G1 X202.444 Y157.746 E0.15551
G1 X203.421 Y155.827 E0.15551
G1 X204.332 Y153.874 E0.15551
G1 X205.173 Y151.892 E0.15551
G1 X205.945 Y149.881 E0.15551
G1 X206.646 Y147.845 E0.15551
G1 X207.276 Y145.785 E0.15551
G1 X207.833 Y143.705 E0.15551
G1 X208.318 Y141.606 E0.15551
G1 X208.729 Y139.492 E0.15551
G1 X209.066 Y137.364 E0.15551
G1 X209.328 Y135.227 E0.15551
G1 X209.516 Y133.081 E0.15551
G1 X209.629 Y130.930 E0.15551
G1 X209.666 Y128.777 E0.15551
G1 X209.629 Y126.623 E0.15551
G1 X209.516 Y124.472 E0.15551
G1 X209.328 Y122.327 E0.15551
G1 X209.065 Y120.183 E0.15594
G1 X208.488 Y116.191 E0.29124
G1 X208.467 Y115.859 E0.02402
G1 X208.482 Y115.507 E0.02544
G1 X208.582 Y114.961 E0.04006
G1 X208.780 Y114.427 E0.04114
G1 X209.094 Y113.899 E0.04432
G1 X209.502 Y113.439 E0.04437
G1 X209.776 Y113.211 E0.02571
G1 X210.068 Y113.015 E0.02544
G1 X210.567 Y112.772 E0.04006
G1 X211.115 Y112.615 E0.04114
G1 X211.714 Y112.557 E0.04343
G1 X212.131 Y112.581 E0.03020
G1 X212.575 Y112.666 E0.03259
G1 X213.004 Y112.812 E0.03275
G1 X213.409 Y113.016 E0.03276
G1 X213.782 Y113.274 E0.03275
G1 X214.116 Y113.582 E0.03275
G1 X214.404 Y113.932 E0.03275
G1 X214.640 Y114.319 E0.03275
G1 X214.823 Y114.741 E0.03318
G1 X214.957 Y115.256 E0.03840
G1 X215.287 Y117.308 E0.15008
G1 X215.575 Y119.278 E0.14377
G1 X215.773 Y120.829 E0.11292
G1 X215.938 Y122.381 E0.11267
G1 X216.070 Y123.932 E0.11237
G1 X216.170 Y125.482 E0.11213
G1 X216.237 Y127.031 E0.11193
G1 X216.272 Y128.579 E0.11179
G1 X216.275 Y130.126 E0.11169
G1 X216.246 Y131.672 E0.11164
G1 X216.184 Y133.217 E0.11164
G1 X216.090 Y134.761 E0.11169
G1 X215.964 Y136.304 E0.11179
G1 X215.805 Y137.846 E0.11194
G1 X215.614 Y139.387 E0.11213
G1 X215.389 Y140.928 E0.11238
G1 X215.131 Y142.467 E0.11269
G1 X214.840 Y144.005 E0.11304
G1 X214.515 Y145.539 E0.11318
G1 X214.158 Y147.060 E0.11282
G1 X213.769 Y148.569 E0.11251
G1 X213.350 Y150.066 E0.11225
G1 X212.899 Y151.551 E0.11204
G1 X212.416 Y153.026 E0.11205
G1 X211.671 Y155.107 E0.15964
G1 X210.788 Y157.368 E0.17524
G1 X210.182 Y158.796 E0.11198
G1 X209.547 Y160.209 E0.11189
G1 X208.880 Y161.610 E0.11204
G1 X208.181 Y162.999 E0.11225
G1 X207.451 Y164.376 E0.11252
G1 X206.689 Y165.740 E0.11284
G1 X205.894 Y167.092 E0.11321
G1 X205.085 Y168.402 E0.11113
G1 X204.250 Y169.688 E0.11075
G1 X203.390 Y170.953 E0.11043
G1 X202.504 Y172.195 E0.11016
G1 X201.593 Y173.415 E0.10995
G1 X200.657 Y174.613 E0.10979
G1 X199.695 Y175.789 E0.10968
G1 X198.708 Y176.943 E0.10963
G1 X197.696 Y178.075 E0.10962
G1 X196.659 Y179.185 E0.10968
G1 X195.596 Y180.273 E0.10978
G1 X194.509 Y181.338 E0.10995
G1 X193.395 Y182.381 E0.11016
G1 X192.256 Y183.402 E0.11043
G1 X191.091 Y184.400 E0.11077
G1 X189.899 Y185.375 E0.11114
G1 X188.741 Y186.280 E0.10612
G1 X187.568 Y187.157 E0.10575
G1 X186.379 Y188.005 E0.10545
G1 X185.175 Y188.826 E0.10520
G1 X183.956 Y189.618 E0.10500
G1 X182.721 Y190.383 E0.10485
G1 X181.471 Y191.119 E0.10475
G1 X180.206 Y191.827 E0.10470
G1 X178.926 Y192.508 E0.10469
G1 X177.630 Y193.161 E0.10475
G1 X176.319 Y193.785 E0.10485
G1 X174.993 Y194.382 E0.10500
G1 X173.651 Y194.950 E0.10520
G1 X172.294 Y195.490 E0.10545
G1 X170.922 Y196.002 E0.10576
G1 X169.533 Y196.485 E0.10616
G1 X168.023 Y196.971 E0.11451
G1 X166.504 Y197.420 E0.11435
G1 X164.977 Y197.831 E0.11424
G1 X163.440 Y198.206 E0.11418
G1 X161.895 Y198.544 E0.11420
G1 X160.339 Y198.845 E0.11446
G1 X157.864 Y199.242 E0.18095
G1 X155.757 Y199.502 E0.15328
G1 X153.655 Y199.693 E0.15239
G1 X151.558 Y199.814 E0.15167
G1 X149.466 Y199.869 E0.15108
G1 X147.380 Y199.857 E0.15063
G1 X145.300 Y199.779 E0.15029
G1 X143.226 Y199.637 E0.15007
G1 X141.160 Y199.429 E0.14996
G1 X139.101 Y199.157 E0.14996
G1 X137.052 Y198.820 E0.14991
G1 X135.699 Y198.562 E0.09944
G1 X133.582 Y198.098 E0.15651
G1 X131.489 Y197.567 E0.15591
G1 X129.421 Y196.970 E0.15540
G1 X127.376 Y196.307 E0.15515
G1 X125.356 Y195.580 E0.15501
G1 X123.361 Y194.789 E0.15499
G1 X121.390 Y193.935 E0.15509
G1 X119.445 Y193.018 E0.15530
G1 X117.525 Y192.038 E0.15561
G1 X115.631 Y190.995 E0.15610
G1 X113.087 Y189.467 E0.21425
G1 X111.209 Y188.242 E0.16189
G1 X109.381 Y186.962 E0.16112
G1 X107.600 Y185.627 E0.16075
G1 X105.863 Y184.235 E0.16069
G1 X104.168 Y182.787 E0.16095
G1 X102.517 Y181.281 E0.16133
G1 X100.909 Y179.720 E0.16182
G1 X99.346 Y178.102 E0.16246
G1 X97.625 Y176.198 E0.18526
G1 X96.116 Y174.409 E0.16899
G1 X94.674 Y172.583 E0.16803
G1 X93.297 Y170.721 E0.16716
G1 X91.987 Y168.825 E0.16645
G1 X90.740 Y166.894 E0.16592
G1 X89.558 Y164.928 E0.16561
G1 X88.439 Y162.926 E0.16560
G1 X87.381 Y160.886 E0.16591
G1 X86.385 Y158.808 E0.16641
G1 X85.266 Y156.247 E0.20179
G1 X84.395 Y154.048 E0.17074
G1 X83.598 Y151.832 E0.17006
G1 X82.874 Y149.598 E0.16954
G1 X82.223 Y147.348 E0.16916
G1 X81.643 Y145.082 E0.16882
G1 X81.136 Y142.804 E0.16851
G1 X80.701 Y140.515 E0.16823
G1 X80.348 Y138.285 E0.16299
G1 X80.074 Y136.250 E0.14827
G1 X79.833 Y134.247 E0.14569
G1 X79.820 Y133.720 E0.03803
G1 X79.860 Y133.371 E0.02537
G1 X79.931 Y133.044 E0.02415
G1 X80.124 Y132.519 E0.04044
G1 X80.292 Y132.208 E0.02553
G1 X80.484 Y131.927 E0.02457
G1 X80.704 Y131.667 E0.02457
G1 X80.959 Y131.423 E0.02544
G1 X81.350 Y131.141 E0.03485
G1 X81.629 Y131.476 F7800.000
G1 F1800.000
G1 X81.893 Y131.336 E0.02163
G1 X82.167 Y131.226 E0.02130
G1 X82.451 Y131.145 E0.02130
G1 X82.741 Y131.094 E0.02130
G1 X83.036 Y131.074 E0.02130
G1 X83.333 Y131.084 E0.02146
G1 X83.719 Y131.145 E0.02823
G1 X84.096 Y131.259 E0.02839
G1 X84.452 Y131.424 E0.02839
G1 X84.783 Y131.637 E0.02839
G1 X85.081 Y131.894 E0.02840
G1 X85.341 Y132.189 E0.02840
G1 X85.557 Y132.518 E0.02839
G1 X85.725 Y132.871 E0.02823
G1 X85.819 Y133.153 E0.02146
G1 X85.882 Y133.438 E0.02109
G1 X86.425 Y137.422 E0.29028
G1 X86.765 Y139.567 E0.15682
G1 X87.179 Y141.696 E0.15660
G1 X87.667 Y143.810 E0.15660
G1 X88.228 Y145.905 E0.15660
G1 X88.863 Y147.979 E0.15660
G1 X89.569 Y150.030 E0.15660
G1 X90.346 Y152.055 E0.15660
G1 X91.193 Y154.051 E0.15660
G1 X92.110 Y156.017 E0.15660
G1 X93.095 Y157.949 E0.15660
G1 X94.146 Y159.846 E0.15660
G1 X95.263 Y161.706 E0.15660
G1 X96.445 Y163.525 E0.15660
G1 X97.689 Y165.301 E0.15660
G1 X98.994 Y167.034 E0.15660
G1 X100.359 Y168.719 E0.15660
G1 X101.782 Y170.356 E0.15660
G1 X103.261 Y171.942 E0.15660
G1 X104.795 Y173.476 E0.15660
G1 X106.381 Y174.955 E0.15660
G1 X108.018 Y176.378 E0.15660
G1 X109.704 Y177.743 E0.15660
G1 X111.436 Y179.049 E0.15660
G1 X113.213 Y180.293 E0.15660
G1 X115.032 Y181.474 E0.15660
G1 X116.891 Y182.591 E0.15660
G1 X118.788 Y183.643 E0.15660
G1 X120.721 Y184.627 E0.15660
G1 X122.686 Y185.544 E0.15660
G1 X124.683 Y186.392 E0.15660
G1 X126.708 Y187.169 E0.15660
G1 X128.759 Y187.875 E0.15660
G1 X130.833 Y188.509 E0.15660
G1 X132.928 Y189.070 E0.15660
G1 X135.041 Y189.558 E0.15660
G1 X137.170 Y189.972 E0.15660
G1 X139.313 Y190.312 E0.15660
G1 X141.465 Y190.576 E0.15660
G1 X143.626 Y190.765 E0.15660
G1 X145.792 Y190.878 E0.15660
G1 X147.961 Y190.916 E0.15660
G1 X150.129 Y190.878 E0.15660
G1 X152.295 Y190.765 E0.15660
G1 X154.456 Y190.576 E0.15660
G1 X156.609 Y190.312 E0.15660
G1 X158.751 Y189.972 E0.15660
G1 X160.880 Y189.558 E0.15660
G1 X162.994 Y189.070 E0.15660
G1 X165.089 Y188.509 E0.15660
G1 X167.163 Y187.875 E0.15660
G1 X169.214 Y187.169 E0.15660
G1 X171.239 Y186.392 E0.15660
G1 X173.235 Y185.544 E0.15660
G1 X175.201 Y184.627 E0.15660
G1 X177.134 Y183.643 E0.15660
G1 X179.031 Y182.591 E0.15660
G1 X180.890 Y181.474 E0.15660
G1 X182.709 Y180.293 E0.15660
G1 X184.486 Y179.049 E0.15660
G1 X186.218 Y177.743 E0.15660
G1 X187.903 Y176.378 E0.15660
G1 X189.540 Y174.955 E0.15660
G1 X191.127 Y173.476 E0.15660
G1 X192.660 Y171.942 E0.15660
G1 X194.140 Y170.356 E0.15660
G1 X195.563 Y168.719 E0.15660
G1 X196.928 Y167.034 E0.15660
G1 X198.233 Y165.301 E0.15660
G1 X199.477 Y163.525 E0.15660
G1 X200.658 Y161.706 E0.15660
G1 X201.775 Y159.846 E0.15660
G1 X202.827 Y157.949 E0.15660
G1 X203.812 Y156.017 E0.15660
G1 X204.728 Y154.051 E0.15660
G1 X205.576 Y152.055 E0.15660
G1 X206.353 Y150.030 E0.15660
G1 X207.059 Y147.979 E0.15660
G1 X207.693 Y145.905 E0.15660
G1 X208.255 Y143.810 E0.15660
G1 X208.743 Y141.696 E0.15660
G1 X209.156 Y139.567 E0.15660
G1 X209.496 Y137.425 E0.15660
G1 X209.760 Y135.272 E0.15660
G1 X209.949 Y133.111 E0.15660
G1 X210.063 Y130.945 E0.15660
G1 X210.101 Y128.777 E0.15660
G1 X210.063 Y126.608 E0.15660
G1 X209.949 Y124.442 E0.15660
G1 X209.760 Y122.281 E0.15660
G1 X209.495 Y120.125 E0.15682
G1 X208.920 Y116.146 E0.29028
G1 X208.902 Y115.855 E0.02110
G1 X208.915 Y115.555 E0.02163
G1 X209.003 Y115.076 E0.03515
G1 X209.174 Y114.615 E0.03556
G1 X209.446 Y114.157 E0.03849
G1 X209.805 Y113.752 E0.03905
G1 X210.036 Y113.559 E0.02173
G1 X210.285 Y113.392 E0.02163
G1 X210.723 Y113.179 E0.03516
G1 X211.197 Y113.044 E0.03556
G1 X211.722 Y112.992 E0.03815
G1 X212.078 Y113.012 E0.02570
G1 X212.463 Y113.086 E0.02834
G1 X212.836 Y113.213 E0.02839
G1 X213.187 Y113.390 E0.02840
G1 X213.510 Y113.614 E0.02840
G1 X213.799 Y113.880 E0.02840
G1 X214.049 Y114.184 E0.02840
G1 X214.254 Y114.520 E0.02840
G1 X214.412 Y114.883 E0.02856
G1 X214.532 Y115.345 E0.03447
G1 X214.858 Y117.374 E0.14837
G1 X215.145 Y119.337 E0.14326
G1 X215.342 Y120.880 E0.11230
G1 X215.506 Y122.423 E0.11201
G1 X215.637 Y123.964 E0.11172
G1 X215.736 Y125.505 E0.11148
G1 X215.803 Y127.045 E0.11128
G1 X215.838 Y128.584 E0.11114
G1 X215.841 Y130.122 E0.11104
G1 X215.812 Y131.659 E0.11099
G1 X215.751 Y133.195 E0.11099
G1 X215.657 Y134.730 E0.11104
G1 X215.532 Y136.264 E0.11113
G1 X215.374 Y137.797 E0.11128
G1 X215.184 Y139.329 E0.11147
G1 X214.960 Y140.860 E0.11172
G1 X214.704 Y142.390 E0.11202
G1 X214.414 Y143.920 E0.11237
G1 X214.091 Y145.444 E0.11251
G1 X213.736 Y146.956 E0.11214
G1 X213.350 Y148.456 E0.11183
G1 X212.933 Y149.944 E0.11157
G1 X212.485 Y151.420 E0.11137
G1 X212.006 Y152.885 E0.11128
G1 X211.264 Y154.955 E0.15876
G1 X210.386 Y157.204 E0.17434
G1 X209.785 Y158.622 E0.11119
G1 X209.153 Y160.027 E0.11122
G1 X208.490 Y161.419 E0.11137
G1 X207.795 Y162.800 E0.11157
G1 X207.070 Y164.169 E0.11183
G1 X206.312 Y165.525 E0.11215
G1 X205.522 Y166.868 E0.11252
G1 X204.718 Y168.169 E0.11044
G1 X203.889 Y169.448 E0.11006
G1 X203.034 Y170.705 E0.10974
G1 X202.154 Y171.939 E0.10947
G1 X201.248 Y173.152 E0.10925
G1 X200.318 Y174.342 E0.10910
G1 X199.362 Y175.511 E0.10899
G1 X198.381 Y176.657 E0.10894
G1 X197.376 Y177.782 E0.10893
G1 X196.345 Y178.885 E0.10899
G1 X195.289 Y179.966 E0.10909
G1 X194.208 Y181.025 E0.10925
G1 X193.102 Y182.061 E0.10947
G1 X191.970 Y183.076 E0.10973
G1 X190.812 Y184.067 E0.11006
G1 X189.628 Y185.036 E0.11044
G1 X188.478 Y185.935 E0.10543
G1 X187.312 Y186.806 E0.10507
G1 X186.131 Y187.649 E0.10477
G1 X184.935 Y188.464 E0.10451
G1 X183.724 Y189.252 E0.10431
G1 X182.497 Y190.011 E0.10416
G1 X181.255 Y190.743 E0.10406
G1 X179.998 Y191.446 E0.10401
G1 X178.726 Y192.122 E0.10401
G1 X177.439 Y192.771 E0.10406
G1 X176.137 Y193.391 E0.10416
G1 X174.819 Y193.984 E0.10431
G1 X173.486 Y194.549 E0.10451
G1 X172.138 Y195.085 E0.10476
G1 X170.775 Y195.593 E0.10507
G1 X169.395 Y196.073 E0.10545
G1 X167.895 Y196.556 E0.11377
G1 X166.386 Y197.002 E0.11360
G1 X164.869 Y197.411 E0.11348
G1 X163.343 Y197.783 E0.11343
G1 X161.808 Y198.119 E0.11344
G1 X160.263 Y198.417 E0.11359
G1 X157.803 Y198.812 E0.17988
G1 X155.711 Y199.071 E0.15220
G1 X153.623 Y199.260 E0.15137
G1 X151.540 Y199.381 E0.15066
G1 X149.462 Y199.435 E0.15009
G1 X147.389 Y199.423 E0.14963
G1 X145.323 Y199.346 E0.14930
G1 X143.263 Y199.204 E0.14908
G1 X141.210 Y198.998 E0.14897
G1 X139.164 Y198.727 E0.14898
G1 X137.128 Y198.393 E0.14901
G1 X135.786 Y198.136 E0.09861
G1 X133.681 Y197.675 E0.15557
G1 X131.602 Y197.148 E0.15488
G1 X129.548 Y196.555 E0.15438
G1 X127.517 Y195.897 E0.15413
G1 X125.510 Y195.174 E0.15401
G1 X123.527 Y194.388 E0.15400
G1 X121.569 Y193.539 E0.15410
G1 X119.636 Y192.628 E0.15431
G1 X117.728 Y191.654 E0.15463
G1 X115.848 Y190.618 E0.15503
