; generated by PrusaSlicer 2.2.0+win64 on 2020-04-13 at 03:45:19 UTC

; 

; external perimeters extrusion width = 0.45mm
; perimeters extrusion width = 0.45mm
; infill extrusion width = 0.45mm
; solid infill extrusion width = 0.60mm
; top infill extrusion width = 0.80mm
; first layer extrusion width = 0.52mm

M73 P0 R101
M73 Q0 S102
M201 X1000 Y1000 Z1000 E5000 ; sets maximum accelerations, mm/sec^2
M203 X200 Y200 Z12 E120 ; sets maximum feedrates, mm/sec
M204 P1250 R1250 T1250 ; sets acceleration (P, T) and retract acceleration (R), mm/sec^2
M205 X8.00 Y8.00 Z0.40 E4.50 ; sets the jerk limits, mm/sec
M205 S0 T0 ; sets the minimum extruding and travel feed rate, mm/sec
M107
M862.3 P "MK3S" ; printer model check
M862.1 P0.4 ; nozzle diameter check
M115 U3.8.1 ; tell printer latest fw version
G90 ; use absolute coordinates
M83 ; extruder relative mode
M104 S235 ; set extruder temp
M140 S95 ; set bed temp
M190 S95 ; wait for bed temp
M109 S235 ; wait for extruder temp
G28 W ; home all without mesh bed level
G80 ; mesh bed leveling
G1 Y-3.0 F1000.0 ; go outside print area
G92 E0.0
G1 X60.0 E9.0 F1000.0 ; intro line
M73 Q0 S102
M73 P0 R101
G1 X100.0 E12.5 F1000.0 ; intro line
G92 E0.0
M221 S95
G21 ; set units to millimeters
G90 ; use absolute coordinates
M83 ; use relative distances for extrusion
M900 K45 ; Filament gcode
;BEFORE_LAYER_CHANGE
G92 E0.0
;0.4


G1 Z0.400 F7800.000
;AFTER_LAYER_CHANGE
;0.4
G1 E-4.00000 F2400.00000
G1 X163.608 Y52.364 F7800.000
G1 E4.00000 F2400.00000
G1 F1800.000
G1 X163.468 Y51.643 E0.01942
G1 X163.415 Y51.350 E0.01526
G1 E-4.00000 F2400.00000
G1 X177.115 Y130.602 F7800.000
G1 E4.00000 F2400.00000
G1 F1800.000
G1 X176.757 Y135.422 E0.34892
G1 X176.122 Y140.046 E0.33699
G1 X175.200 Y144.621 E0.33699
G1 X173.995 Y149.130 E0.33699
G1 X172.511 Y153.555 E0.33699
G1 X170.754 Y157.879 E0.33699
G1 X168.731 Y162.086 E0.33699
G1 X166.450 Y166.158 E0.33699
G1 X163.919 Y170.079 E0.33699
G1 X161.149 Y173.836 E0.33699
G1 X158.151 Y177.413 E0.33699
G1 X154.935 Y180.795 E0.33699
G1 X151.515 Y183.971 E0.33699
G1 X147.903 Y186.928 E0.33699
G1 X144.114 Y189.653 E0.33699
G1 X140.163 Y192.137 E0.33699
G1 X136.064 Y194.371 E0.33699
G1 X131.835 Y196.344 E0.33699
G1 X127.490 Y198.050 E0.33699
G1 X123.048 Y199.482 E0.33699
G1 X118.525 Y200.634 E0.33699
G1 X113.939 Y201.502 E0.33699
G1 X109.308 Y202.083 E0.33699
G1 X104.650 Y202.373 E0.33699
G1 X99.982 Y202.373 E0.33699
G1 X95.324 Y202.083 E0.33699
G1 X90.693 Y201.502 E0.33699
G1 X86.107 Y200.634 E0.33699
G1 X81.584 Y199.482 E0.33699
G1 X77.142 Y198.050 E0.33699
G1 X72.797 Y196.344 E0.33699
G1 X68.568 Y194.371 E0.33699
G1 X64.469 Y192.137 E0.33699
G1 X60.518 Y189.653 E0.33699
G1 X56.729 Y186.928 E0.33699
G1 X53.117 Y183.971 E0.33699
G1 X49.697 Y180.795 E0.33699
G1 X46.481 Y177.413 E0.33699
G1 X43.483 Y173.836 E0.33699
G1 X40.713 Y170.079 E0.33699
G1 X38.182 Y166.158 E0.33699
G1 X35.901 Y162.086 E0.33699
G1 X33.878 Y157.879 E0.33699
G1 X32.121 Y153.555 E0.33699
G1 X30.637 Y149.130 E0.33699
G1 X29.432 Y144.621 E0.33699
G1 X28.510 Y140.046 E0.33699
G1 X27.875 Y135.422 E0.33699
G1 X27.517 Y130.602 E0.34893
G1 X27.789 Y129.862 E0.05697
G1 X28.182 Y129.277 E0.05083
G1 X28.703 Y128.804 E0.05083
G1 X29.322 Y128.469 E0.05083
G1 X30.003 Y128.290 E0.05083
G1 X30.707 Y128.280 E0.05083
G1 X31.393 Y128.437 E0.05083
G1 X32.022 Y128.754 E0.05083
G1 X32.557 Y129.212 E0.05083
G1 X32.967 Y129.784 E0.05083
G1 X33.227 Y130.431 E0.05035
G1 X33.939 Y134.984 E0.33271
G1 X34.913 Y139.354 E0.32329
G1 X36.167 Y143.652 E0.32329
G1 X37.695 Y147.861 E0.32329
G1 X39.490 Y151.963 E0.32329
G1 X41.545 Y155.941 E0.32329
G1 X43.852 Y159.779 E0.32329
G1 X46.400 Y163.461 E0.32329
G1 X49.180 Y166.970 E0.32326
G1 X52.241 Y170.353 E0.32936
G1 X55.388 Y173.419 E0.31723
G1 X58.790 Y176.330 E0.32329
G1 X62.372 Y179.016 E0.32329
G1 X66.120 Y181.467 E0.32329
G1 X70.017 Y183.672 E0.32329
G1 X74.048 Y185.621 E0.32329
G1 X78.196 Y187.307 E0.32329
G1 X82.444 Y188.723 E0.32329
G1 X86.774 Y189.863 E0.32329
G1 X91.168 Y190.722 E0.32329
G1 X95.609 Y191.297 E0.32329
G1 X100.077 Y191.585 E0.32329
G1 X104.555 Y191.585 E0.32329
G1 X109.023 Y191.297 E0.32329
G1 X113.464 Y190.722 E0.32329
G1 X117.858 Y189.863 E0.32329
G1 X122.188 Y188.723 E0.32329
G1 X126.436 Y187.307 E0.32329
G1 X130.584 Y185.621 E0.32329
G1 X134.615 Y183.672 E0.32329
G1 X138.512 Y181.467 E0.32329
G1 X142.260 Y179.016 E0.32329
G1 X145.842 Y176.330 E0.32329
G1 X149.244 Y173.419 E0.32329
G1 X152.451 Y170.294 E0.32329
G1 X155.452 Y166.971 E0.32329
G1 X158.232 Y163.461 E0.32329
G1 X160.780 Y159.779 E0.32329
G1 X163.087 Y155.941 E0.32329
G1 X165.142 Y151.963 E0.32329
G1 X166.937 Y147.861 E0.32329
G1 X168.465 Y143.652 E0.32329
G1 X169.719 Y139.354 E0.32329
G1 X170.693 Y134.984 E0.32329
G1 X171.405 Y130.431 E0.33271
G1 X171.665 Y129.784 E0.05035
G1 X172.075 Y129.212 E0.05083
G1 X172.614 Y128.751 E0.05119
G1 X173.277 Y128.429 E0.05321
G1 X173.925 Y128.280 E0.04802
G1 X174.629 Y128.290 E0.05083
G1 X175.310 Y128.469 E0.05083
G1 X175.929 Y128.804 E0.05083
G1 X176.450 Y129.277 E0.05083
G1 X176.843 Y129.862 E0.05083
G1 X177.094 Y130.546 E0.05263
G1 X176.675 Y130.664 F7800.000
G1 F1800.000
G1 X176.325 Y135.376 E0.34117
G1 X175.694 Y139.973 E0.33503
G1 X174.777 Y144.522 E0.33503
G1 X173.579 Y149.005 E0.33503
G1 X172.103 Y153.404 E0.33503
G1 X170.357 Y157.703 E0.33503
G1 X168.346 Y161.885 E0.33503
G1 X166.078 Y165.934 E0.33503
G1 X163.562 Y169.833 E0.33503
G1 X160.808 Y173.567 E0.33503
G1 X157.827 Y177.123 E0.33503
G1 X154.630 Y180.486 E0.33503
G1 X151.229 Y183.644 E0.33503
G1 X147.638 Y186.583 E0.33503
G1 X143.872 Y189.293 E0.33503
G1 X139.943 Y191.763 E0.33503
G1 X135.869 Y193.983 E0.33503
G1 X131.663 Y195.945 E0.33503
G1 X127.344 Y197.641 E0.33503
G1 X122.928 Y199.064 E0.33503
G1 X118.431 Y200.210 E0.33503
G1 X113.872 Y201.073 E0.33503
G1 X109.267 Y201.650 E0.33503
G1 X104.636 Y201.939 E0.33503
G1 X99.996 Y201.939 E0.33503
G1 X95.365 Y201.650 E0.33503
G1 X90.760 Y201.073 E0.33503
G1 X86.201 Y200.210 E0.33503
G1 X81.704 Y199.064 E0.33503
G1 X77.288 Y197.641 E0.33503
G1 X72.969 Y195.945 E0.33503
G1 X68.764 Y193.983 E0.33503
G1 X64.689 Y191.763 E0.33503
G1 X60.760 Y189.293 E0.33503
G1 X56.994 Y186.583 E0.33503
G1 X53.403 Y183.644 E0.33503
G1 X50.002 Y180.486 E0.33503
G1 X46.805 Y177.123 E0.33503
G1 X43.824 Y173.567 E0.33503
G1 X41.070 Y169.833 E0.33503
G1 X38.554 Y165.934 E0.33503
G1 X36.287 Y161.885 E0.33503
G1 X34.275 Y157.703 E0.33503
G1 X32.529 Y153.404 E0.33503
G1 X31.053 Y149.005 E0.33503
G1 X29.855 Y144.522 E0.33503
G1 X28.938 Y139.973 E0.33503
G1 X28.307 Y135.376 E0.33503
G1 X27.957 Y130.664 E0.34117
G1 X28.178 Y130.060 E0.04640
G1 X28.513 Y129.563 E0.04324
G1 X28.956 Y129.161 E0.04324
G1 X29.483 Y128.875 E0.04324
G1 X30.062 Y128.724 E0.04324
G1 X30.661 Y128.715 E0.04324
G1 X31.245 Y128.849 E0.04324
G1 X31.779 Y129.118 E0.04324
G1 X32.235 Y129.507 E0.04324
G1 X32.584 Y129.994 E0.04324
G1 X32.805 Y130.547 E0.04300
G1 X33.512 Y135.065 E0.33015
G1 X34.493 Y139.462 E0.32531
G1 X35.754 Y143.787 E0.32530
G1 X37.291 Y148.023 E0.32531
G1 X39.098 Y152.150 E0.32530
G1 X41.166 Y156.153 E0.32531
G1 X43.487 Y160.015 E0.32530
G1 X46.051 Y163.719 E0.32531
G1 X48.849 Y167.251 E0.32529
G1 X51.928 Y170.654 E0.33138
G1 X55.095 Y173.739 E0.31923
G1 X58.519 Y176.669 E0.32531
G1 X62.123 Y179.372 E0.32530
G1 X65.894 Y181.838 E0.32531
G1 X69.815 Y184.056 E0.32530
G1 X73.872 Y186.018 E0.32531
G1 X78.045 Y187.715 E0.32530
G1 X82.320 Y189.139 E0.32530
G1 X86.677 Y190.286 E0.32531
G1 X91.099 Y191.151 E0.32530
G1 X95.567 Y191.729 E0.32531
G1 X100.063 Y192.019 E0.32530
G1 X104.569 Y192.019 E0.32530
G1 X109.065 Y191.729 E0.32530
G1 X113.533 Y191.151 E0.32531
G1 X117.955 Y190.286 E0.32530
G1 X122.312 Y189.139 E0.32531
G1 X126.587 Y187.715 E0.32530
G1 X130.760 Y186.018 E0.32530
G1 X134.817 Y184.056 E0.32531
G1 X138.738 Y181.838 E0.32530
G1 X142.509 Y179.372 E0.32530
G1 X146.113 Y176.669 E0.32531
G1 X149.537 Y173.739 E0.32531
G1 X152.764 Y170.596 E0.32531
G1 X155.783 Y167.251 E0.32530
G1 X158.581 Y163.719 E0.32531
G1 X161.145 Y160.015 E0.32531
G1 X163.466 Y156.153 E0.32530
G1 X165.534 Y152.150 E0.32531
G1 X167.341 Y148.023 E0.32530
G1 X168.878 Y143.787 E0.32531
G1 X170.139 Y139.462 E0.32530
G1 X171.120 Y135.065 E0.32530
G1 X171.827 Y130.547 E0.33015
G1 X172.048 Y129.994 E0.04300
G1 X172.397 Y129.507 E0.04324
G1 X172.854 Y129.117 E0.04338
G1 X173.422 Y128.841 E0.04563
G1 X173.971 Y128.715 E0.04065
G1 X174.570 Y128.724 E0.04324
G1 X175.149 Y128.875 E0.04324
G1 X175.676 Y129.161 E0.04324
G1 X176.119 Y129.563 E0.04324
G1 X176.454 Y130.060 E0.04324
G1 X176.654 Y130.607 E0.04207
G1 X177.041 Y130.826 F7800.000
G1 E-4.00000 F2400.00000
G1 X178.256 Y123.998 F7800.000
G1 E4.00000 F2400.00000
G1 F1800.000
G1 X183.188 Y123.998 E0.35608
G1 X183.188 Y127.210 E0.23189
G1 X178.346 Y127.210 E0.34957
G1 X178.155 Y132.512 E0.38308
G1 X177.737 Y136.919 E0.31961
G1 X177.064 Y141.294 E0.31960
G1 X176.157 Y145.536 E0.31321
G1 X174.960 Y149.890 E0.32600
G1 X173.537 Y154.081 E0.31957
G1 X171.872 Y158.182 E0.31960
G1 X170.010 Y162.101 E0.31320
G1 X167.840 Y166.060 E0.32599
G1 X165.487 Y169.809 E0.31959
G1 X162.973 Y173.344 E0.31321
G1 X160.204 Y176.798 E0.31961
G1 X157.239 Y180.085 E0.31959
G1 X154.088 Y183.193 E0.31959
G1 X150.761 Y186.113 E0.31959
G1 X147.270 Y188.834 E0.31959
G1 X142.969 Y191.800 E0.37719
G1 X145.042 Y196.234 E0.35340
G1 X142.333 Y197.627 E0.21997
G1 X140.200 Y193.477 E0.33690
G1 X135.355 Y195.998 E0.39436
G1 X131.194 Y197.855 E0.32898
G1 X126.929 Y199.459 E0.32896
G1 X122.490 Y200.826 E0.33538
G1 X118.150 Y201.887 E0.32261
G1 X113.667 Y202.703 E0.32899
G1 X109.143 Y203.248 E0.32899
G1 X104.594 Y203.521 E0.32899
G1 X100.038 Y203.521 E0.32900
G1 X95.489 Y203.248 E0.32899
G1 X90.965 Y202.703 E0.32899
G1 X86.482 Y201.887 E0.32899
G1 X82.056 Y200.805 E0.32899
G1 X77.703 Y199.459 E0.32899
G1 X73.438 Y197.855 E0.32899
G1 X69.277 Y195.998 E0.32898
G1 X64.432 Y193.477 E0.39436
G1 X62.299 Y197.627 E0.33690
G1 X59.590 Y196.234 E0.21997
G1 X61.663 Y191.800 E0.35340
G1 X57.362 Y188.834 E0.37719
G1 X53.871 Y186.113 E0.31959
G1 X50.544 Y183.193 E0.31959
G1 X47.393 Y180.085 E0.31959
G1 X44.428 Y176.798 E0.31959
G1 X41.659 Y173.344 E0.31961
G1 X39.145 Y169.809 E0.31319
G1 X36.748 Y165.983 E0.32601
G1 X34.662 Y162.180 E0.31320
G1 X32.760 Y158.182 E0.31960
G1 X31.095 Y154.081 E0.31959
G1 X29.672 Y149.890 E0.31959
G1 X28.494 Y145.623 E0.31959
G1 X27.568 Y141.294 E0.31960
G1 X26.895 Y136.919 E0.31960
G1 X26.477 Y132.512 E0.31961
G1 X26.286 Y127.210 E0.38308
G1 X21.444 Y127.210 E0.34957
G1 X21.444 Y123.998 E0.23189
G1 X26.376 Y123.998 E0.35608
G1 X26.698 Y119.944 E0.29361
G1 X27.075 Y116.841 E0.22574
G1 X27.590 Y113.698 E0.22993
G1 X46.623 Y47.233 E4.99173
G1 X47.857 Y47.587 E0.09274
G1 X44.242 Y60.210 E0.94808
G1 X34.415 Y113.379 E3.90384
G1 X33.995 Y117.837 E0.32333
G1 X33.867 Y122.303 E0.32257
G1 X34.031 Y126.768 E0.32257
G1 X34.486 Y131.212 E0.32257
G1 X35.230 Y135.617 E0.32257
G1 X36.259 Y139.965 E0.32257
G1 X37.570 Y144.236 E0.32257
G1 X39.157 Y148.412 E0.32257
G1 X41.013 Y152.476 E0.32257
G1 X43.130 Y156.411 E0.32257
G1 X45.499 Y160.198 E0.32257
G1 X48.110 Y163.824 E0.32257
G1 X50.952 Y167.271 E0.32257
G1 X53.948 Y170.456 E0.31570
G1 X57.279 Y173.572 E0.32940
G1 X60.738 Y176.401 E0.32261
G1 X64.374 Y178.997 E0.32257
G1 X68.171 Y181.351 E0.32257
G1 X72.114 Y183.452 E0.32257
G1 X76.185 Y185.292 E0.32257
G1 X80.368 Y186.862 E0.32257
G1 X84.645 Y188.155 E0.32257
G1 X88.996 Y189.167 E0.32257
G1 X93.404 Y189.893 E0.32257
G1 X97.851 Y190.330 E0.32257
G1 X102.316 Y190.476 E0.32257
G1 X106.781 Y190.330 E0.32257
G1 X111.228 Y189.893 E0.32257
G1 X115.636 Y189.167 E0.32257
G1 X119.987 Y188.155 E0.32257
G1 X124.264 Y186.862 E0.32257
G1 X128.447 Y185.292 E0.32257
G1 X132.518 Y183.452 E0.32257
G1 X136.461 Y181.351 E0.32257
G1 X140.258 Y178.997 E0.32257
G1 X143.894 Y176.401 E0.32257
G1 X147.352 Y173.573 E0.32257
G1 X150.619 Y170.525 E0.32257
G1 X153.680 Y167.271 E0.32257
G1 X156.522 Y163.824 E0.32257
G1 X159.133 Y160.198 E0.32257
G1 X161.502 Y156.411 E0.32257
G1 X163.619 Y152.476 E0.32257
G1 X165.475 Y148.412 E0.32257
G1 X167.062 Y144.236 E0.32257
G1 X168.373 Y139.965 E0.32257
G1 X169.402 Y135.617 E0.32257
G1 X170.146 Y131.212 E0.32257
G1 X170.601 Y126.768 E0.32257
G1 X170.765 Y122.303 E0.32257
G1 X170.637 Y117.837 E0.32257
G1 X170.217 Y113.379 E0.32334
G1 X160.390 Y60.210 E3.90384
G1 X156.775 Y47.587 E0.94808
G1 X158.009 Y47.233 E0.09270
G1 X177.042 Y113.698 E4.99173
M73 Q1 S101
M73 P1 R100
G1 X177.558 Y116.841 E0.22993
G1 X177.934 Y119.944 E0.22574
G1 X178.252 Y123.938 E0.28928
G1 X178.657 Y123.564 F7800.000
G1 F1800.000
G1 X182.542 Y123.564 E0.28049
G1 X182.542 Y122.314 E0.09025
G1 X183.622 Y122.314 E0.07798
G1 X183.622 Y127.644 E0.38483
G1 X178.765 Y127.644 E0.35068
G1 X178.588 Y132.541 E0.35376
G1 X178.168 Y136.973 E0.32144
G1 X177.491 Y141.373 E0.32143
G1 X176.578 Y145.639 E0.31502
G1 X175.376 Y150.017 E0.32783
G1 X173.944 Y154.233 E0.32141
G1 X172.269 Y158.357 E0.32142
G1 X170.397 Y162.298 E0.31501
G1 X168.214 Y166.280 E0.32783
G1 X165.848 Y170.050 E0.32142
G1 X163.320 Y173.606 E0.31502
G1 X160.535 Y177.080 E0.32143
G1 X157.553 Y180.385 E0.32142
G1 X154.384 Y183.511 E0.32142
G1 X151.038 Y186.448 E0.32142
G1 X147.527 Y189.184 E0.32142
G1 X143.518 Y191.949 E0.35158
G1 X145.613 Y196.429 E0.35708
G1 X142.145 Y198.211 E0.28152
G1 X140.013 Y194.063 E0.33674
G1 X135.544 Y196.389 E0.36380
G1 X131.359 Y198.257 E0.33087
G1 X127.070 Y199.870 E0.33086
G1 X122.606 Y201.245 E0.33726
G1 X118.240 Y202.312 E0.32447
G1 X113.731 Y203.132 E0.33087
G1 X109.182 Y203.680 E0.33087
G1 X104.607 Y203.955 E0.33087
G1 X100.025 Y203.955 E0.33088
G1 X95.450 Y203.680 E0.33087
G1 X90.901 Y203.132 E0.33087
G1 X86.392 Y202.312 E0.33087
G1 X81.941 Y201.223 E0.33087
G1 X77.562 Y199.870 E0.33087
G1 X73.273 Y198.257 E0.33087
G1 X69.088 Y196.389 E0.33087
G1 X64.619 Y194.063 E0.36380
G1 X62.487 Y198.211 E0.33674
G1 X59.019 Y196.429 E0.28152
G1 X61.114 Y191.949 E0.35708
G1 X57.105 Y189.184 E0.35158
G1 X53.594 Y186.448 E0.32142
G1 X50.248 Y183.511 E0.32142
G1 X47.079 Y180.385 E0.32142
G1 X44.097 Y177.080 E0.32142
G1 X41.312 Y173.606 E0.32143
G1 X38.784 Y170.050 E0.31501
G1 X36.373 Y166.203 E0.32783
G1 X34.275 Y162.378 E0.31501
G1 X32.363 Y158.357 E0.32142
G1 X30.688 Y154.233 E0.32142
G1 X29.256 Y150.017 E0.32142
G1 X28.073 Y145.726 E0.32142
G1 X27.141 Y141.373 E0.32142
G1 X26.464 Y136.973 E0.32143
G1 X26.044 Y132.541 E0.32144
G1 X25.867 Y127.644 E0.35376
G1 X21.010 Y127.644 E0.35068
G1 X21.010 Y122.314 E0.38483
G1 X22.090 Y122.314 E0.07798
G1 X22.090 Y123.564 E0.09025
G1 X25.975 Y123.564 E0.28049
G1 X26.266 Y119.901 E0.26531
G1 X26.645 Y116.779 E0.22704
G1 X27.165 Y113.603 E0.23241
G1 X44.826 Y51.910 E4.63320
G1 X42.929 Y51.383 E0.14212
G1 X42.403 Y51.294 E0.03853
G1 X41.903 Y51.276 E0.03614
G1 X41.435 Y51.142 E0.03514
G1 X41.617 Y50.783 E0.02912
G1 X41.803 Y50.563 E0.02076
G1 X42.585 Y50.818 E0.05944
G1 X44.944 Y51.495 E0.17720
G1 X46.325 Y46.696 E0.36051
G1 X48.394 Y47.289 E0.15539
G1 X44.666 Y60.310 E0.97791
G1 X34.845 Y113.439 E3.90094
G1 X34.429 Y117.864 E0.32092
G1 X34.302 Y122.301 E0.32052
G1 X34.464 Y126.738 E0.32052
G1 X34.916 Y131.154 E0.32052
G1 X35.655 Y135.531 E0.32052
G1 X36.678 Y139.851 E0.32052
G1 X37.981 Y144.095 E0.32052
G1 X39.558 Y148.245 E0.32052
G1 X41.402 Y152.283 E0.32052
G1 X43.505 Y156.192 E0.32052
G1 X45.859 Y159.956 E0.32052
G1 X48.454 Y163.558 E0.32052
G1 X51.278 Y166.984 E0.32052
G1 X54.254 Y170.148 E0.31367
G1 X57.565 Y173.246 E0.32735
G1 X61.002 Y176.056 E0.32054
G1 X64.615 Y178.636 E0.32052
G1 X68.388 Y180.975 E0.32052
G1 X72.306 Y183.063 E0.32052
G1 X76.351 Y184.890 E0.32052
G1 X80.508 Y186.450 E0.32052
G1 X84.757 Y187.736 E0.32052
G1 X89.081 Y188.741 E0.32052
G1 X93.461 Y189.462 E0.32052
G1 X97.879 Y189.896 E0.32053
G1 X102.316 Y190.041 E0.32052
G1 X106.753 Y189.896 E0.32052
G1 X111.171 Y189.462 E0.32053
G1 X115.551 Y188.741 E0.32052
G1 X119.875 Y187.736 E0.32052
G1 X124.124 Y186.450 E0.32052
G1 X128.281 Y184.890 E0.32052
G1 X132.326 Y183.063 E0.32052
G1 X136.244 Y180.975 E0.32052
